;FLAVOR:RepRap
;TIME:4785
;Filament used: 5.69333m
;Layer height: 0.2
;Generated with Cura_SteamEngine 3.4.1
T0
M190 S60
M104 S200
M109 S200
M82 ;absolute extrusion mode
G21 ;metric values
G90 ;absolute positioning
M82 ;set extruder to absolute mode
M107 ;start with the fan off
G28 X0 Y0 ;move X/Y to min endstops
G28 Z0 ;move Z to min endstops
G1 Z15.0 F9000 ;move the platform down 15mm
G92 E0 ;zero the extruded length
G1 F200 E3 ;extrude 3mm of feed stock
G92 E0 ;zero the extruded length again
G1 F9000

M83 ;relative extrusion mode
G1 F1500 E-6.5
;LAYER_COUNT:71
;LAYER:0
M107
G0 F3600 X9.527 Y16.891 Z0.3
;TYPE:SKIRT
G1 F1500 E6.5
G1 F1800 X17.445 Y8.973 E0.55866
G1 X18.031 Y8.443 E0.03942
G1 X18.667 Y7.976 E0.03937
G1 X19.347 Y7.575 E0.03938
G1 X20.065 Y7.245 E0.03942
G1 X20.812 Y6.99 E0.03938
G1 X21.581 Y6.811 E0.03939
G1 X22.365 Y6.711 E0.03943
G1 X22.96 Y6.688 E0.02971
G1 X23.126 Y6.688 E0.00828
G1 X23.915 Y6.728 E0.03941
G1 X24.695 Y6.847 E0.03936
G1 X25.46 Y7.045 E0.03942
G1 X26.2 Y7.319 E0.03937
G1 X26.909 Y7.667 E0.0394
G1 X27.58 Y8.085 E0.03944
G1 X28.204 Y8.568 E0.03937
G1 X28.641 Y8.973 E0.02973
G1 X164.259 Y144.594 E9.56869
G1 X165.127 Y143.725 E0.06128
G1 X165.713 Y143.196 E0.03939
G1 X166.349 Y142.728 E0.03939
G1 X167.029 Y142.328 E0.03936
G1 X167.747 Y141.998 E0.03942
G1 X168.494 Y141.742 E0.0394
G1 X169.263 Y141.563 E0.03939
G1 X170.046 Y141.463 E0.03938
G1 X170.643 Y141.44 E0.02981
G1 X170.809 Y141.44 E0.00828
G1 X171.598 Y141.48 E0.03941
G1 X172.378 Y141.599 E0.03936
G1 X173.143 Y141.797 E0.03942
G1 X173.883 Y142.071 E0.03937
G1 X174.592 Y142.419 E0.0394
G1 X175.263 Y142.837 E0.03944
G1 X175.887 Y143.32 E0.03937
G1 X176.324 Y143.725 E0.02973
G1 X192.324 Y159.725 E1.12889
G1 X192.854 Y160.311 E0.03942
G1 X193.321 Y160.947 E0.03937
G1 X193.722 Y161.627 E0.03938
G1 X194.052 Y162.345 E0.03942
G1 X194.307 Y163.092 E0.03938
G1 X194.486 Y163.861 E0.03939
G1 X194.586 Y164.645 E0.03943
G1 X194.609 Y165.24 E0.02971
G1 X194.609 Y165.406 E0.00828
G1 X194.569 Y166.195 E0.03941
G1 X194.45 Y166.975 E0.03936
G1 X194.252 Y167.74 E0.03942
G1 X193.978 Y168.48 E0.03937
G1 X193.63 Y169.189 E0.0394
G1 X193.212 Y169.86 E0.03944
G1 X192.729 Y170.484 E0.03937
G1 X192.324 Y170.922 E0.02976
G1 X191.285 Y171.96 E0.07327
G1 X191.517 Y172.354 E0.02281
G1 X191.847 Y173.071 E0.03938
G1 X192.103 Y173.818 E0.0394
G1 X192.282 Y174.587 E0.03939
G1 X192.382 Y175.371 E0.03943
G1 X192.405 Y175.968 E0.02981
G1 X192.405 Y176.134 E0.00828
G1 X192.365 Y176.923 E0.03941
G1 X192.246 Y177.703 E0.03936
G1 X192.048 Y178.468 E0.03942
G1 X191.774 Y179.208 E0.03937
G1 X191.426 Y179.917 E0.0394
G1 X191.008 Y180.588 E0.03944
G1 X190.525 Y181.212 E0.03937
G1 X190.12 Y181.649 E0.02973
G1 X182.203 Y189.566 E0.55859
G1 X181.617 Y190.096 E0.03942
G1 X180.981 Y190.563 E0.03937
G1 X180.301 Y190.964 E0.03938
G1 X179.583 Y191.294 E0.03942
G1 X178.836 Y191.549 E0.03938
G1 X178.067 Y191.728 E0.03939
G1 X177.283 Y191.828 E0.03943
G1 X176.688 Y191.851 E0.02971
G1 X176.522 Y191.851 E0.00828
G1 X175.733 Y191.811 E0.03941
G1 X174.953 Y191.692 E0.03936
G1 X174.188 Y191.494 E0.03942
G1 X173.448 Y191.22 E0.03937
G1 X172.739 Y190.872 E0.0394
G1 X172.514 Y190.732 E0.01322
G1 X171.476 Y191.77 E0.07324
G1 X170.89 Y192.299 E0.03939
G1 X170.254 Y192.767 E0.03939
G1 X169.574 Y193.167 E0.03936
G1 X168.856 Y193.497 E0.03942
G1 X168.109 Y193.753 E0.0394
G1 X167.34 Y193.932 E0.03939
G1 X166.557 Y194.032 E0.03938
G1 X165.96 Y194.055 E0.02981
G1 X165.794 Y194.055 E0.00828
G1 X165.005 Y194.015 E0.03941
G1 X164.225 Y193.896 E0.03936
G1 X163.46 Y193.698 E0.03942
G1 X162.72 Y193.424 E0.03937
G1 X162.011 Y193.076 E0.0394
G1 X161.34 Y192.658 E0.03944
G1 X160.716 Y192.175 E0.03937
G1 X160.279 Y191.77 E0.02973
G1 X144.279 Y175.77 E1.12889
G1 X143.749 Y175.184 E0.03942
G1 X143.282 Y174.548 E0.03937
G1 X142.881 Y173.868 E0.03938
G1 X142.551 Y173.15 E0.03942
G1 X142.296 Y172.403 E0.03938
G1 X142.117 Y171.634 E0.03939
G1 X142.017 Y170.85 E0.03943
G1 X141.994 Y170.255 E0.02971
G1 X141.994 Y170.089 E0.00828
G1 X142.034 Y169.3 E0.03941
G1 X142.153 Y168.52 E0.03936
G1 X142.351 Y167.755 E0.03942
G1 X142.625 Y167.015 E0.03937
G1 X142.973 Y166.306 E0.0394
G1 X143.391 Y165.635 E0.03944
G1 X143.874 Y165.011 E0.03937
G1 X144.279 Y164.573 E0.02976
G1 X145.148 Y163.705 E0.06128
G1 X9.527 Y28.087 E9.56869
G1 X8.997 Y27.502 E0.03938
G1 X8.53 Y26.865 E0.03941
G1 X8.129 Y26.185 E0.03938
G1 X7.799 Y25.467 E0.03942
G1 X7.544 Y24.72 E0.03938
G1 X7.365 Y23.951 E0.03939
G1 X7.265 Y23.167 E0.03943
G1 X7.242 Y22.572 E0.02971
G1 X7.242 Y22.406 E0.00828
G1 X7.282 Y21.617 E0.03941
G1 X7.401 Y20.837 E0.03936
G1 X7.599 Y20.072 E0.03942
G1 X7.873 Y19.332 E0.03937
G1 X8.221 Y18.623 E0.0394
G1 X8.639 Y17.952 E0.03944
G1 X9.122 Y17.328 E0.03937
G1 X9.527 Y16.891 E0.02973
G0 F3600 X9.809 Y17.173
G1 F1800 X17.727 Y9.255 E0.55866
G1 X18.299 Y8.741 E0.03837
G1 X18.921 Y8.288 E0.03839
G1 X19.586 Y7.902 E0.03836
G1 X20.288 Y7.587 E0.03839
G1 X21.019 Y7.347 E0.03839
G1 X21.77 Y7.184 E0.03834
G1 X22.535 Y7.1 E0.0384
G1 X22.96 Y7.088 E0.02121
G1 X23.126 Y7.088 E0.00828
G1 X23.894 Y7.128 E0.03837
G1 X24.654 Y7.247 E0.03838
G1 X25.397 Y7.445 E0.03836
G1 X26.116 Y7.719 E0.03839
G1 X26.802 Y8.066 E0.03835
G1 X27.449 Y8.482 E0.03838
G1 X28.049 Y8.963 E0.03837
G1 X28.359 Y9.255 E0.02125
G1 X164.26 Y145.159 E9.58866
G1 X165.41 Y144.008 E0.08117
G1 X165.981 Y143.493 E0.03836
G1 X166.603 Y143.04 E0.03839
G1 X167.268 Y142.654 E0.03836
G1 X167.97 Y142.34 E0.03837
G1 X168.7 Y142.1 E0.03834
G1 X169.452 Y141.936 E0.0384
G1 X170.217 Y141.852 E0.0384
G1 X170.643 Y141.84 E0.02126
G1 X170.809 Y141.84 E0.00828
G1 X171.577 Y141.88 E0.03837
G1 X172.337 Y141.999 E0.03838
G1 X173.08 Y142.197 E0.03836
G1 X173.799 Y142.471 E0.03839
G1 X174.485 Y142.818 E0.03835
G1 X175.132 Y143.234 E0.03838
G1 X175.732 Y143.715 E0.03837
G1 X176.042 Y144.007 E0.02125
G1 X192.042 Y160.007 E1.12889
G1 X192.556 Y160.579 E0.03837
G1 X193.009 Y161.201 E0.03839
G1 X193.395 Y161.866 E0.03836
G1 X193.71 Y162.568 E0.03839
G1 X193.95 Y163.299 E0.03839
G1 X194.113 Y164.05 E0.03834
G1 X194.197 Y164.815 E0.0384
G1 X194.209 Y165.24 E0.02121
G1 X194.209 Y165.406 E0.00828
G1 X194.169 Y166.174 E0.03837
G1 X194.05 Y166.934 E0.03838
G1 X193.852 Y167.677 E0.03836
G1 X193.578 Y168.396 E0.03839
G1 X193.231 Y169.082 E0.03835
G1 X192.815 Y169.729 E0.03838
G1 X192.334 Y170.329 E0.03837
G1 X192.041 Y170.639 E0.02128
G1 X190.782 Y171.897 E0.08879
G1 X190.804 Y171.927 E0.00186
G1 X191.19 Y172.592 E0.03836
G1 X191.505 Y173.294 E0.03839
G1 X191.745 Y174.025 E0.03839
G1 X191.908 Y174.777 E0.03839
G1 X191.993 Y175.541 E0.03835
G1 X192.005 Y175.968 E0.02131
G1 X192.005 Y176.134 E0.00828
G1 X191.965 Y176.902 E0.03837
G1 X191.846 Y177.662 E0.03838
G1 X191.648 Y178.405 E0.03836
G1 X191.374 Y179.124 E0.03839
G1 X191.027 Y179.81 E0.03835
G1 X190.611 Y180.457 E0.03838
G1 X190.13 Y181.057 E0.03837
G1 X189.838 Y181.367 E0.02125
G1 X181.921 Y189.284 E0.55859
G1 X181.349 Y189.798 E0.03837
G1 X180.727 Y190.251 E0.03839
G1 X180.062 Y190.637 E0.03836
G1 X179.36 Y190.952 E0.03839
G1 X178.629 Y191.192 E0.03839
G1 X177.878 Y191.355 E0.03834
G1 X177.113 Y191.439 E0.0384
G1 X176.688 Y191.451 E0.02121
G1 X176.522 Y191.451 E0.00828
G1 X175.754 Y191.411 E0.03837
G1 X174.994 Y191.292 E0.03838
G1 X174.251 Y191.094 E0.03836
G1 X173.532 Y190.82 E0.03839
G1 X172.846 Y190.473 E0.03835
G1 X172.457 Y190.223 E0.02307
G1 X171.193 Y191.487 E0.08918
G1 X170.622 Y192.002 E0.03836
G1 X170 Y192.455 E0.03839
G1 X169.335 Y192.841 E0.03836
G1 X168.633 Y193.155 E0.03837
G1 X167.903 Y193.395 E0.03834
G1 X167.151 Y193.559 E0.0384
G1 X166.386 Y193.643 E0.0384
G1 X165.96 Y193.655 E0.02126
G1 X165.794 Y193.655 E0.00828
G1 X165.026 Y193.615 E0.03837
G1 X164.266 Y193.496 E0.03838
G1 X163.523 Y193.298 E0.03836
G1 X162.804 Y193.024 E0.03839
G1 X162.118 Y192.677 E0.03835
G1 X161.471 Y192.261 E0.03838
G1 X160.871 Y191.78 E0.03837
G1 X160.561 Y191.488 E0.02125
G1 X144.561 Y175.488 E1.12889
G1 X144.047 Y174.916 E0.03837
G1 X143.594 Y174.294 E0.03839
G1 X143.208 Y173.629 E0.03836
G1 X142.893 Y172.927 E0.03839
G1 X142.653 Y172.196 E0.03839
G1 X142.49 Y171.445 E0.03834
G1 X142.406 Y170.68 E0.0384
G1 X142.394 Y170.255 E0.02121
G1 X142.394 Y170.089 E0.00828
G1 X142.434 Y169.321 E0.03837
G1 X142.553 Y168.561 E0.03838
G1 X142.751 Y167.818 E0.03836
G1 X143.025 Y167.099 E0.03839
G1 X143.372 Y166.413 E0.03835
G1 X143.788 Y165.766 E0.03838
G1 X144.269 Y165.166 E0.03837
G1 X144.562 Y164.856 E0.02128
G1 X145.713 Y163.706 E0.08117
G1 X9.809 Y27.805 E9.58866
G1 X9.295 Y27.233 E0.03837
G1 X8.842 Y26.611 E0.03839
G1 X8.456 Y25.946 E0.03836
G1 X8.141 Y25.244 E0.03839
G1 X7.901 Y24.514 E0.03834
G1 X7.738 Y23.762 E0.03839
G1 X7.654 Y22.997 E0.0384
G1 X7.642 Y22.572 E0.02121
G1 X7.642 Y22.406 E0.00828
G1 X7.682 Y21.638 E0.03837
G1 X7.801 Y20.878 E0.03838
G1 X7.999 Y20.135 E0.03836
G1 X8.273 Y19.416 E0.03839
G1 X8.62 Y18.73 E0.03835
G1 X9.036 Y18.083 E0.03838
G1 X9.517 Y17.483 E0.03837
G1 X9.809 Y17.173 E0.02125
G0 F3600 X10.092 Y17.456
G1 F1800 X18.01 Y9.538 E0.55866
G1 X18.567 Y9.038 E0.03734
G1 X19.173 Y8.601 E0.03727
G1 X19.823 Y8.23 E0.03734
G1 X20.509 Y7.931 E0.03733
G1 X21.223 Y7.707 E0.03733
G1 X21.956 Y7.56 E0.0373
G1 X22.96 Y7.488 E0.05022
G1 X23.126 Y7.488 E0.00828
G1 X23.873 Y7.528 E0.03732
G1 X24.611 Y7.647 E0.03729
G1 X25.333 Y7.845 E0.03735
G1 X26.029 Y8.118 E0.0373
G1 X26.692 Y8.465 E0.03733
G1 X27.315 Y8.88 E0.03735
G1 X28.076 Y9.538 E0.05019
G1 X164.259 Y145.724 E9.60855
G1 X165.692 Y144.291 E0.10111
G1 X166.249 Y143.791 E0.03734
G1 X166.855 Y143.353 E0.0373
G1 X167.505 Y142.983 E0.03731
G1 X168.191 Y142.684 E0.03733
G1 X168.905 Y142.459 E0.03735
G1 X169.638 Y142.313 E0.03729
G1 X170.643 Y142.24 E0.05027
G1 X170.809 Y142.24 E0.00828
G1 X171.556 Y142.28 E0.03732
G1 X172.294 Y142.399 E0.03729
G1 X173.016 Y142.597 E0.03735
G1 X173.712 Y142.87 E0.0373
G1 X174.375 Y143.217 E0.03733
G1 X174.998 Y143.632 E0.03735
G1 X175.759 Y144.29 E0.05019
G1 X191.759 Y160.29 E1.12889
G1 X192.259 Y160.847 E0.03734
G1 X192.696 Y161.453 E0.03727
G1 X193.067 Y162.103 E0.03734
G1 X193.366 Y162.789 E0.03733
G1 X193.59 Y163.503 E0.03733
G1 X193.737 Y164.236 E0.0373
G1 X193.809 Y165.24 E0.05022
G1 X193.809 Y165.406 E0.00828
G1 X193.769 Y166.153 E0.03732
G1 X193.65 Y166.891 E0.03729
G1 X193.452 Y167.613 E0.03735
G1 X193.179 Y168.309 E0.0373
G1 X192.832 Y168.972 E0.03733
G1 X192.417 Y169.595 E0.03735
G1 X191.758 Y170.357 E0.05026
G1 X190.258 Y171.856 E0.1058
G1 X190.491 Y172.18 E0.01991
G1 X190.862 Y172.83 E0.03734
G1 X191.161 Y173.515 E0.03729
G1 X191.386 Y174.229 E0.03735
G1 X191.532 Y174.963 E0.03734
G1 X191.605 Y175.968 E0.05027
G1 X191.605 Y176.134 E0.00828
G1 X191.565 Y176.881 E0.03732
G1 X191.446 Y177.619 E0.03729
G1 X191.248 Y178.341 E0.03735
G1 X190.975 Y179.037 E0.0373
G1 X190.628 Y179.7 E0.03733
G1 X190.213 Y180.323 E0.03735
G1 X189.555 Y181.084 E0.05019
G1 X181.638 Y189.001 E0.55859
G1 X181.081 Y189.501 E0.03734
G1 X180.475 Y189.938 E0.03727
G1 X179.825 Y190.309 E0.03734
G1 X179.139 Y190.608 E0.03733
G1 X178.425 Y190.832 E0.03733
G1 X177.692 Y190.979 E0.0373
G1 X176.688 Y191.051 E0.05022
G1 X176.522 Y191.051 E0.00828
G1 X175.775 Y191.011 E0.03732
G1 X175.037 Y190.892 E0.03729
G1 X174.315 Y190.694 E0.03735
G1 X173.619 Y190.421 E0.0373
G1 X172.956 Y190.074 E0.03733
G1 X172.407 Y189.708 E0.03292
G1 X170.911 Y191.204 E0.10555
G1 X170.354 Y191.704 E0.03734
G1 X169.748 Y192.142 E0.0373
G1 X169.098 Y192.512 E0.03731
G1 X168.412 Y192.811 E0.03733
G1 X167.698 Y193.036 E0.03735
G1 X166.965 Y193.182 E0.03729
G1 X165.96 Y193.255 E0.05027
G1 X165.794 Y193.255 E0.00828
G1 X165.047 Y193.215 E0.03732
G1 X164.309 Y193.096 E0.03729
G1 X163.587 Y192.898 E0.03735
G1 X162.891 Y192.625 E0.0373
G1 X162.228 Y192.278 E0.03733
G1 X161.605 Y191.863 E0.03735
G1 X160.844 Y191.205 E0.05019
G1 X144.844 Y175.205 E1.12889
G1 X144.344 Y174.648 E0.03734
G1 X143.907 Y174.042 E0.03727
G1 X143.536 Y173.392 E0.03734
G1 X143.237 Y172.706 E0.03733
G1 X143.013 Y171.992 E0.03733
G1 X142.866 Y171.259 E0.0373
G1 X142.794 Y170.255 E0.05022
G1 X142.794 Y170.089 E0.00828
G1 X142.834 Y169.342 E0.03732
G1 X142.953 Y168.604 E0.03729
G1 X143.151 Y167.882 E0.03735
G1 X143.424 Y167.186 E0.0373
G1 X143.771 Y166.523 E0.03733
G1 X144.186 Y165.9 E0.03735
G1 X144.845 Y165.138 E0.05026
G1 X146.278 Y163.705 E0.10111
G1 X10.092 Y27.522 E9.60855
G1 X9.592 Y26.965 E0.03734
G1 X9.155 Y26.359 E0.03727
G1 X8.784 Y25.709 E0.03734
G1 X8.485 Y25.023 E0.03733
G1 X8.261 Y24.309 E0.03733
G1 X8.114 Y23.576 E0.0373
G1 X8.042 Y22.572 E0.05022
G1 X8.042 Y22.406 E0.00828
G1 X8.082 Y21.659 E0.03732
G1 X8.201 Y20.921 E0.03729
G1 X8.399 Y20.199 E0.03735
G1 X8.672 Y19.503 E0.0373
G1 X9.019 Y18.84 E0.03733
G1 X9.434 Y18.217 E0.03735
G1 X10.092 Y17.456 E0.05019
G0 F3600 X10.375 Y17.739
G1 F1800 X18.293 Y9.821 E0.55866
G1 X18.834 Y9.337 E0.03622
G1 X19.425 Y8.914 E0.03626
G1 X20.059 Y8.56 E0.03623
G1 X20.728 Y8.277 E0.03624
G1 X21.424 Y8.069 E0.03624
G1 X22.139 Y7.939 E0.03626
G1 X22.96 Y7.888 E0.04104
G1 X23.126 Y7.888 E0.00828
G1 X23.851 Y7.928 E0.03623
G1 X24.568 Y8.047 E0.03626
G1 X25.267 Y8.245 E0.03625
G1 X25.94 Y8.518 E0.03623
G1 X26.579 Y8.863 E0.03623
G1 X27.176 Y9.277 E0.03625
G1 X27.793 Y9.821 E0.04104
G1 X164.259 Y146.29 E9.62852
G1 X165.975 Y144.574 E0.12107
G1 X166.516 Y144.089 E0.03625
G1 X167.107 Y143.667 E0.03623
G1 X167.741 Y143.312 E0.03625
G1 X168.41 Y143.029 E0.03624
G1 X169.106 Y142.821 E0.03624
G1 X169.821 Y142.691 E0.03626
G1 X170.643 Y142.64 E0.04109
G1 X170.809 Y142.64 E0.00828
G1 X171.534 Y142.68 E0.03623
G1 X172.251 Y142.799 E0.03626
G1 X172.95 Y142.997 E0.03625
G1 X173.623 Y143.27 E0.03623
G1 X174.262 Y143.615 E0.03623
G1 X174.859 Y144.029 E0.03625
G1 X175.476 Y144.573 E0.04104
G1 X191.476 Y160.573 E1.12889
G1 X191.96 Y161.114 E0.03622
G1 X192.383 Y161.705 E0.03626
G1 X192.737 Y162.339 E0.03623
G1 X193.02 Y163.008 E0.03624
G1 X193.228 Y163.704 E0.03624
G1 X193.358 Y164.419 E0.03626
G1 X193.409 Y165.24 E0.04104
G1 X193.409 Y165.406 E0.00828
G1 X193.369 Y166.131 E0.03623
G1 X193.25 Y166.848 E0.03626
G1 X193.052 Y167.547 E0.03625
G1 X192.779 Y168.22 E0.03623
G1 X192.434 Y168.859 E0.03623
G1 X192.02 Y169.456 E0.03625
G1 X191.475 Y170.074 E0.04111
G1 X189.733 Y171.816 E0.12291
G1 X189.755 Y171.841 E0.00166
G1 X190.178 Y172.432 E0.03626
G1 X190.533 Y173.066 E0.03625
G1 X190.816 Y173.735 E0.03624
G1 X191.023 Y174.431 E0.03623
G1 X191.154 Y175.145 E0.03622
G1 X191.205 Y175.968 E0.04114
G1 X191.205 Y176.134 E0.00828
G1 X191.165 Y176.859 E0.03623
G1 X191.046 Y177.576 E0.03626
G1 X190.848 Y178.275 E0.03625
G1 X190.575 Y178.948 E0.03623
G1 X190.23 Y179.587 E0.03623
G1 X189.816 Y180.184 E0.03625
G1 X189.272 Y180.801 E0.04104
G1 X181.355 Y188.718 E0.55859
G1 X180.814 Y189.202 E0.03622
G1 X180.223 Y189.625 E0.03626
G1 X179.589 Y189.979 E0.03623
G1 X178.92 Y190.262 E0.03624
G1 X178.224 Y190.47 E0.03624
G1 X177.509 Y190.6 E0.03626
G1 X176.688 Y190.651 E0.04104
G1 X176.522 Y190.651 E0.00828
G1 X175.797 Y190.611 E0.03623
G1 X175.08 Y190.492 E0.03626
G1 X174.381 Y190.294 E0.03625
G1 X173.708 Y190.021 E0.03623
G1 X173.069 Y189.676 E0.03623
G1 X172.472 Y189.262 E0.03625
G1 X172.373 Y189.175 E0.00658
G1 X170.628 Y190.921 E0.12315
G1 X170.087 Y191.406 E0.03625
G1 X169.496 Y191.828 E0.03623
G1 X168.862 Y192.183 E0.03625
G1 X168.193 Y192.466 E0.03624
G1 X167.497 Y192.674 E0.03624
G1 X166.782 Y192.804 E0.03626
G1 X165.96 Y192.855 E0.04109
G1 X165.794 Y192.855 E0.00828
G1 X165.069 Y192.815 E0.03623
G1 X164.352 Y192.696 E0.03626
G1 X163.653 Y192.498 E0.03625
G1 X162.98 Y192.225 E0.03623
G1 X162.341 Y191.88 E0.03623
G1 X161.744 Y191.466 E0.03625
G1 X161.127 Y190.922 E0.04104
G1 X145.127 Y174.922 E1.12889
G1 X144.643 Y174.381 E0.03622
G1 X144.22 Y173.79 E0.03626
G1 X143.866 Y173.156 E0.03623
G1 X143.583 Y172.487 E0.03624
G1 X143.375 Y171.791 E0.03624
G1 X143.245 Y171.076 E0.03626
G1 X143.194 Y170.255 E0.04104
G1 X143.194 Y170.089 E0.00828
G1 X143.234 Y169.364 E0.03623
G1 X143.353 Y168.647 E0.03626
G1 X143.551 Y167.948 E0.03625
G1 X143.824 Y167.275 E0.03623
G1 X144.169 Y166.636 E0.03623
G1 X144.583 Y166.039 E0.03625
