;FLAVOR:RepRap
;TIME:4186
;Filament used: 4.90862m
;Layer height: 0.2
;Generated with Cura_SteamEngine 3.4.1
T0
M190 S60
M104 S200
M109 S200
M82 ;absolute extrusion mode
G21 ;metric values
G90 ;absolute positioning
M82 ;set extruder to absolute mode
M107 ;start with the fan off
G28 X0 Y0 ;move X/Y to min endstops
G28 Z0 ;move Z to min endstops
G1 Z15.0 F9000 ;move the platform down 15mm
G92 E0 ;zero the extruded length
G1 F200 E3 ;extrude 3mm of feed stock
G92 E0 ;zero the extruded length again
G1 F9000
M83 ;relative extrusion mode
G1 F1500 E-6.5
;LAYER_COUNT:67
;LAYER:0
M107
G0 F3600 X62.922 Y122.553 Z0.3
;TYPE:SKIRT
G1 F1500 E6.5
G1 F1800 X174.575 Y10.912 E7.8773
G1 X175.002 Y10.542 E0.02819
G1 X175.477 Y10.235 E0.02822
G1 X175.99 Y9.999 E0.02817
G1 X176.532 Y9.837 E0.02822
G1 X177.091 Y9.753 E0.0282
G1 X177.656 Y9.749 E0.02819
G1 X178.217 Y9.825 E0.02824
G1 X178.761 Y9.978 E0.02819
G1 X179.277 Y10.207 E0.02816
G1 X179.757 Y10.507 E0.02824
G1 X180.231 Y10.913 E0.03114
G1 X188.3 Y18.982 E0.56931
G1 X188.671 Y19.409 E0.02822
G1 X188.978 Y19.884 E0.02822
G1 X189.214 Y20.397 E0.02817
G1 X189.376 Y20.939 E0.02822
G1 X189.46 Y21.498 E0.0282
G1 X189.464 Y22.063 E0.02819
G1 X189.388 Y22.623 E0.02819
G1 X189.235 Y23.167 E0.02819
G1 X189.006 Y23.684 E0.02821
G1 X188.706 Y24.164 E0.02824
G1 X188.301 Y24.638 E0.0311
G1 X74.732 Y138.278 E8.01541
G1 X71.113 Y142.332 E0.27112
G1 X67.728 Y146.583 E0.27111
G1 X64.601 Y151.005 E0.2702
G1 X61.712 Y155.622 E0.27172
G1 X59.103 Y160.368 E0.2702
G1 X56.762 Y165.266 E0.27084
G1 X54.429 Y170.996 E0.30866
G1 X54.179 Y171.503 E0.0282
G1 X53.861 Y171.97 E0.02819
G1 X53.553 Y172.316 E0.02311
G1 X37.397 Y188.474 E1.13996
G1 X36.97 Y188.845 E0.02822
G1 X36.495 Y189.151 E0.02819
G1 X35.981 Y189.388 E0.02824
G1 X35.44 Y189.55 E0.02817
G1 X34.881 Y189.634 E0.0282
G1 X34.315 Y189.638 E0.02824
G1 X33.684 Y189.547 E0.03181
G1 X27.276 Y188.095 E0.3278
G1 X23.167 Y187.387 E0.20802
G1 X22.618 Y187.252 E0.02821
G1 X22.094 Y187.041 E0.02818
G1 X21.604 Y186.758 E0.02823
G1 X21.017 Y186.273 E0.03799
G1 X12.94 Y178.191 E0.57005
G1 X12.569 Y177.763 E0.02826
G1 X12.263 Y177.288 E0.02819
G1 X12.026 Y176.775 E0.02819
G1 X11.822 Y176.012 E0.0394
G1 X11.365 Y173.234 E0.14046
G1 X10.249 Y167.872 E0.27324
G1 X9.685 Y165.617 E0.11597
G1 X9.587 Y165.06 E0.02822
G1 X9.569 Y164.495 E0.0282
G1 X9.63 Y163.933 E0.0282
G1 X9.77 Y163.386 E0.02817
G1 X9.986 Y162.863 E0.02823
G1 X10.273 Y162.376 E0.0282
G1 X10.738 Y161.818 E0.03624
G1 X26.899 Y145.659 E1.14018
G1 X27.326 Y145.289 E0.02819
G1 X27.801 Y144.982 E0.02822
G1 X28.244 Y144.773 E0.02444
G1 X32.689 Y142.999 E0.23877
G1 X37.649 Y140.713 E0.27247
G1 X42.427 Y138.174 E0.26994
G1 X47.083 Y135.351 E0.27165
G1 X51.546 Y132.286 E0.27011
G1 X55.842 Y128.965 E0.2709
G1 X59.955 Y125.394 E0.27175
G1 X62.922 Y122.553 E0.20494
G0 F3600 X63.199 Y122.842
G1 F1800 X174.858 Y11.195 E7.87772
G1 X175.264 Y10.845 E0.02674
G1 X175.718 Y10.56 E0.02674
G1 X176.209 Y10.345 E0.02674
G1 X176.727 Y10.205 E0.02677
G1 X177.26 Y10.144 E0.02677
G1 X177.796 Y10.162 E0.02676
G1 X178.323 Y10.261 E0.02675
G1 X178.83 Y10.436 E0.02676
G1 X179.305 Y10.684 E0.02673
G1 X179.738 Y11.001 E0.02677
G1 X179.949 Y11.195 E0.0143
G1 X188.018 Y19.264 E0.56931
G1 X188.367 Y19.671 E0.02675
G1 X188.653 Y20.125 E0.02677
G1 X188.868 Y20.616 E0.02674
G1 X189.008 Y21.134 E0.02677
G1 X189.069 Y21.667 E0.02677
G1 X189.051 Y22.202 E0.02671
G1 X188.953 Y22.73 E0.02679
G1 X188.777 Y23.237 E0.02678
G1 X188.529 Y23.712 E0.02673
G1 X188.212 Y24.145 E0.02677
G1 X188.018 Y24.355 E0.01426
G1 X74.442 Y138.002 E8.01591
G1 X70.809 Y142.072 E0.27218
G1 X67.412 Y146.337 E0.27203
G1 X64.266 Y150.788 E0.27193
G1 X61.368 Y155.417 E0.27247
G1 X58.746 Y160.189 E0.27165
G1 X56.391 Y165.114 E0.27236
G1 X54.058 Y170.845 E0.3087
G1 X53.82 Y171.326 E0.02677
G1 X53.512 Y171.765 E0.02675
G1 X53.27 Y172.033 E0.01801
G1 X37.114 Y188.191 E1.13996
G1 X36.707 Y188.541 E0.02678
G1 X36.254 Y188.827 E0.02673
G1 X35.762 Y189.042 E0.02679
G1 X35.244 Y189.182 E0.02677
G1 X34.712 Y189.243 E0.02672
G1 X34.176 Y189.225 E0.02676
G1 X33.772 Y189.157 E0.02044
G1 X27.353 Y187.702 E0.32837
G1 X23.235 Y186.993 E0.20847
G1 X22.715 Y186.863 E0.02674
G1 X22.22 Y186.657 E0.02675
G1 X21.76 Y186.379 E0.02681
G1 X21.3 Y185.99 E0.03006
G1 X13.223 Y177.908 E0.57005
G1 X12.873 Y177.501 E0.02678
G1 X12.587 Y177.047 E0.02677
G1 X12.372 Y176.556 E0.02674
G1 X12.217 Y175.947 E0.03135
G1 X11.759 Y173.162 E0.14081
G1 X10.641 Y167.791 E0.2737
G1 X10.073 Y165.52 E0.11679
G1 X9.983 Y164.992 E0.02672
G1 X9.971 Y164.455 E0.0268
G1 X10.039 Y163.924 E0.02671
G1 X10.186 Y163.408 E0.02677
G1 X10.408 Y162.919 E0.02679
G1 X10.699 Y162.469 E0.02674
G1 X11.021 Y162.101 E0.0244
G1 X27.182 Y145.942 E1.14018
G1 X27.588 Y145.592 E0.02674
G1 X28.042 Y145.307 E0.02674
G1 X28.393 Y145.144 E0.01931
G1 X32.866 Y143.359 E0.24027
G1 X37.812 Y141.079 E0.27171
G1 X42.621 Y138.523 E0.27171
G1 X47.291 Y135.693 E0.27243
G1 X51.791 Y132.602 E0.27237
G1 X56.095 Y129.274 E0.27143
G1 X60.233 Y125.683 E0.27334
G1 X63.199 Y122.842 E0.20491
G0 F3600 X63.453 Y123.153
G1 F1800 X175.14 Y11.478 E7.8797
G1 X175.525 Y11.15 E0.02523
G1 X175.957 Y10.887 E0.02523
G1 X176.424 Y10.694 E0.02521
G1 X176.916 Y10.578 E0.02522
G1 X177.42 Y10.541 E0.02521
G1 X177.924 Y10.584 E0.02524
G1 X178.415 Y10.705 E0.02523
G1 X178.88 Y10.902 E0.02519
G1 X179.309 Y11.171 E0.02526
G1 X179.666 Y11.478 E0.02349
G1 X187.735 Y19.547 E0.56931
G1 X188.063 Y19.932 E0.02523
G1 X188.326 Y20.363 E0.02519
G1 X188.519 Y20.831 E0.02526
G1 X188.635 Y21.323 E0.02522
G1 X188.672 Y21.827 E0.02521
G1 X188.629 Y22.331 E0.02524
G1 X188.508 Y22.822 E0.02523
G1 X188.311 Y23.287 E0.02519
G1 X188.043 Y23.716 E0.02524
G1 X187.735 Y24.072 E0.02349
G1 X74.151 Y137.727 E8.01647
G1 X70.506 Y141.81 E0.27306
G1 X67.088 Y146.102 E0.27373
G1 X63.938 Y150.558 E0.27225
G1 X61.017 Y155.225 E0.27468
G1 X58.391 Y160.002 E0.27196
G1 X56.032 Y164.936 E0.27285
G1 X53.688 Y170.695 E0.3102
G1 X53.461 Y171.146 E0.02519
G1 X53.165 Y171.557 E0.02527
G1 X52.987 Y171.751 E0.01314
G1 X36.831 Y187.909 E1.13996
G1 X36.446 Y188.237 E0.02523
G1 X36.015 Y188.5 E0.02519
G1 X35.547 Y188.692 E0.02524
G1 X35.055 Y188.809 E0.02523
G1 X34.551 Y188.846 E0.02521
G1 X33.861 Y188.767 E0.03465
G1 X27.435 Y187.311 E0.32872
G1 X23.303 Y186.599 E0.20918
G1 X22.813 Y186.474 E0.02523
G1 X22.349 Y186.273 E0.02523
G1 X21.922 Y186.002 E0.02523
G1 X21.583 Y185.707 E0.02242
G1 X13.506 Y177.625 E0.57005
G1 X13.178 Y177.24 E0.02523
G1 X12.914 Y176.809 E0.02522
G1 X12.722 Y176.341 E0.02524
G1 X12.611 Y175.882 E0.02356
G1 X12.151 Y173.084 E0.14147
G1 X11.023 Y167.667 E0.27605
G1 X10.462 Y165.423 E0.1154
G1 X10.378 Y164.924 E0.02525
G1 X10.374 Y164.419 E0.0252
G1 X10.45 Y163.919 E0.02523
G1 X10.603 Y163.437 E0.02523
G1 X10.831 Y162.986 E0.02521
G1 X11.127 Y162.576 E0.02523
G1 X11.303 Y162.384 E0.01299
G1 X27.464 Y146.225 E1.14018
G1 X27.849 Y145.897 E0.02523
G1 X28.281 Y145.634 E0.02523
G1 X28.541 Y145.516 E0.01424
G1 X33.01 Y143.732 E0.24007
G1 X37.988 Y141.438 E0.27346
G1 X42.823 Y138.868 E0.27318
G1 X47.519 Y136.021 E0.27398
G1 X52.017 Y132.933 E0.2722
G1 X56.348 Y129.584 E0.27314
G1 X60.51 Y125.972 E0.27493
G1 X63.453 Y123.153 E0.20332
G1 F1500 E-6.5
G0 F3600 X65.244 Y124.948
G0 X65.856 Y125.558
G0 X28.103 Y178.809
G0 X28.103 Y178.909
;TYPE:WALL-OUTER
G1 F1500 E6.5
G1 F1800 X23.841 Y183.173 E0.30078
G1 X16.041 Y175.372 E0.55037
G1 X20.304 Y171.11 E0.30074
G1 X13.837 Y164.644 E0.45625
G1 X29.72 Y148.762 E1.1206
G1 X36.185 Y155.229 E0.45621
G1 X177.262 Y14.151 E9.95378
G1 X177.403 Y14.01 E0.00995
G1 X177.544 Y14.151 E0.00642
G1 X185.203 Y21.81 E0.54038
G1 X43.985 Y163.028 E9.96369
G1 X50.451 Y169.494 E0.45621
G1 X34.71 Y185.235 E1.11061
G1 X34.569 Y185.376 E0.00995
G1 X34.428 Y185.235 E0.00642
G1 X28.103 Y178.909 E0.4463
G0 F3600 X27.962 Y179.05
G0 X28.103 Y178.357
;TYPE:SKIN
G1 F1800 X23.841 Y182.623 E0.30085
G1 X16.591 Y175.372 E0.51156
G1 X20.856 Y171.11 E0.30081
G1 X14.387 Y164.644 E0.45632
G1 X29.72 Y149.312 E1.08179
G1 X36.185 Y155.781 E0.45628
G1 X177.403 Y14.56 E9.9638
G1 X184.653 Y21.81 E0.51153
G1 X43.433 Y163.028 E9.96376
G1 X49.901 Y169.494 E0.45628
G1 X34.569 Y184.826 E1.08176
G1 X28.103 Y178.357 E0.45632
G0 F3600 X23.908 Y182.3
G1 F1800 X16.912 Y175.304 E0.49361
G1 X16.842 Y175.234
G0 F3600 X17.195 Y175.021
G1 F1800 X24.191 Y182.017 E0.49361
G1 X24.261 Y182.087
G0 F3600 X24.474 Y181.734
G1 F1800 X17.478 Y174.738 E0.49361
G1 X17.408 Y174.668
G0 F3600 X17.761 Y174.455
G1 F1800 X24.757 Y181.452 E0.49364
G1 X24.827 Y181.522
G0 F3600 X25.039 Y181.168
G1 F1800 X18.043 Y174.173 E0.49357
G1 X17.973 Y174.103
G0 F3600 X18.327 Y173.89
G1 F1800 X25.322 Y180.885 E0.49354
G1 X25.392 Y180.955
G0 F3600 X25.605 Y180.602
G1 F1800 X18.61 Y173.608 E0.4935
G1 X18.54 Y173.538
G0 F3600 X18.893 Y173.325
G1 F1800 X25.887 Y180.32 E0.4935
G1 X25.957 Y180.39
G0 F3600 X26.17 Y180.036
G1 F1800 X19.176 Y173.042 E0.49346
G1 X19.106 Y172.972
G0 F3600 X19.458 Y172.759
G1 F1800 X26.452 Y179.753 E0.49346
G1 X26.522 Y179.823
G0 F3600 X26.735 Y179.47
G1 F1800 X19.742 Y172.477 E0.49339
G1 X19.672 Y172.407
G0 F3600 X20.025 Y172.194
G1 F1800 X27.018 Y179.187 E0.49339
G1 X27.088 Y179.257
G0 F3600 X27.3 Y178.904
G1 F1800 X20.308 Y171.911 E0.49336
G1 X20.238 Y171.841
G0 F3600 X20.59 Y171.628
G1 F1800 X27.583 Y178.621 E0.49339
G1 X27.653 Y178.691
G0 F3600 X27.866 Y178.338
G1 F1800 X20.873 Y171.346 E0.49336
G1 X20.803 Y171.276
G0 F3600 X14.689 Y164.596
G1 F1800 X34.617 Y184.523 E1.40599
G1 X34.687 Y184.593
G0 F3600 X34.899 Y184.24
G1 F1800 X14.972 Y164.313 E1.40596
G1 X14.902 Y164.243
G0 F3600 X15.255 Y164.03
G1 F1800 X35.182 Y183.958 E1.40599
G1 X35.252 Y184.028
G0 F3600 X35.465 Y183.675
G1 F1800 X15.537 Y163.747 E1.40603
G1 X15.467 Y163.677
G0 F3600 X15.82 Y163.464
G1 F1800 X35.748 Y183.392 E1.40603
G1 X35.818 Y183.462
G0 F3600 X36.031 Y183.109
G1 F1800 X16.103 Y163.181 E1.40603
G1 X16.033 Y163.111
G0 F3600 X16.386 Y162.899
G1 F1800 X36.314 Y182.826 E1.40599
G1 X36.384 Y182.896
G0 F3600 X36.597 Y182.543
G1 F1800 X16.669 Y162.616 E1.40599
G1 X16.599 Y162.546
G0 F3600 X16.952 Y162.333
G1 F1800 X36.879 Y182.261 E1.40599
G1 X36.949 Y182.331
G0 F3600 X37.162 Y181.978
G1 F1800 X17.235 Y162.05 E1.40599
G1 X17.165 Y161.98
G0 F3600 X17.517 Y161.767
G1 F1800 X37.445 Y181.695 E1.40603
G1 X37.515 Y181.765
G0 F3600 X37.728 Y181.412
G1 F1800 X17.8 Y161.484 E1.40603
G1 X17.73 Y161.414
G0 F3600 X18.083 Y161.201
G1 F1800 X38.011 Y181.129 E1.40603
G1 X38.081 Y181.199
G0 F3600 X38.294 Y180.846
G1 F1800 X18.366 Y160.919 E1.40599
G1 X18.296 Y160.849
G0 F3600 X18.649 Y160.636
G1 F1800 X38.576 Y180.563 E1.40596
G1 X38.646 Y180.633
G0 F3600 X38.859 Y180.281
G1 F1800 X18.932 Y160.353 E1.40599
G1 X18.862 Y160.283
G0 F3600 X19.214 Y160.07
G1 F1800 X39.142 Y179.998 E1.40603
G1 X39.212 Y180.068
G0 F3600 X39.425 Y179.715
G1 F1800 X19.497 Y159.787 E1.40603
G1 X19.427 Y159.717
G0 F3600 X19.78 Y159.504
G1 F1800 X39.708 Y179.432 E1.40603
G1 X39.778 Y179.502
G0 F3600 X39.991 Y179.149
G1 F1800 X20.063 Y159.222 E1.40599
G1 X19.993 Y159.152
G0 F3600 X20.346 Y158.939
G1 F1800 X40.273 Y178.866 E1.40596
G1 X40.343 Y178.936
G0 F3600 X40.556 Y178.584
G1 F1800 X20.629 Y158.656 E1.40599
G1 X20.559 Y158.586
G0 F3600 X20.911 Y158.373
G1 F1800 X40.839 Y178.301 E1.40603
G1 X40.909 Y178.371
G0 F3600 X41.122 Y178.018
G1 F1800 X21.194 Y158.09 E1.40603
G1 X21.124 Y158.02
G0 F3600 X21.477 Y157.807
G1 F1800 X41.405 Y177.735 E1.40603
G1 X41.475 Y177.805
G0 F3600 X41.688 Y177.452
G1 F1800 X21.76 Y157.525 E1.40599
G1 X21.69 Y157.455
G0 F3600 X22.043 Y157.242
G1 F1800 X41.971 Y177.169 E1.40599
G1 X42.041 Y177.239
G0 F3600 X42.253 Y176.887
G1 F1800 X22.326 Y156.959 E1.40599
G1 X22.256 Y156.889
G0 F3600 X22.609 Y156.676
G1 F1800 X42.536 Y176.604 E1.40599
G1 X42.606 Y176.674
G0 F3600 X42.819 Y176.321
G1 F1800 X22.891 Y156.393 E1.40603
G1 X22.821 Y156.323
G0 F3600 X23.174 Y156.11
G1 F1800 X43.102 Y176.038 E1.40603
G1 X43.172 Y176.108
G0 F3600 X43.385 Y175.755
G1 F1800 X23.457 Y155.827 E1.40603
G1 X23.387 Y155.757
G0 F3600 X23.74 Y155.545
G1 F1800 X43.668 Y175.472 E1.40599
G1 X43.738 Y175.542
G0 F3600 X43.95 Y175.189
G1 F1800 X24.023 Y155.262 E1.40596
G1 X23.953 Y155.192
G0 F3600 X24.306 Y154.979
G1 F1800 X44.233 Y174.907 E1.40599
G1 X44.303 Y174.977
G0 F3600 X44.516 Y174.624
G1 F1800 X24.588 Y154.696 E1.40603
G1 X24.518 Y154.626
G0 F3600 X24.871 Y154.413
G1 F1800 X44.799 Y174.341 E1.40603
G1 X44.869 Y174.411
G0 F3600 X45.082 Y174.058
G1 F1800 X25.154 Y154.13 E1.40603
G1 X25.084 Y154.06
G0 F3600 X25.437 Y153.848
G1 F1800 X45.365 Y173.775 E1.40599
G1 X45.435 Y173.845
G0 F3600 X45.647 Y173.492
G1 F1800 X25.72 Y153.565 E1.40596
G1 X25.65 Y153.495
G0 F3600 X26.003 Y153.282
G1 F1800 X45.93 Y173.21 E1.40599
G1 X46 Y173.28
G0 F3600 X46.213 Y172.927
G1 F1800 X26.285 Y152.999 E1.40603
G1 X26.215 Y152.929
G0 F3600 X26.568 Y152.716
G1 F1800 X46.496 Y172.644 E1.40603
G1 X46.566 Y172.714
G0 F3600 X46.779 Y172.361
G1 F1800 X26.851 Y152.433 E1.40603
G1 X26.781 Y152.363
G0 F3600 X27.134 Y152.15
G1 F1800 X47.062 Y172.078 E1.40603
G1 X47.132 Y172.148
G0 F3600 X47.345 Y171.795
G1 F1800 X27.417 Y151.868 E1.40599
G1 X27.347 Y151.798
G0 F3600 X27.7 Y151.585
G1 F1800 X47.627 Y171.512 E1.40596
G1 X47.697 Y171.582
G0 F3600 X47.91 Y171.23
G1 F1800 X27.983 Y151.302 E1.40599
G1 X27.913 Y151.232
G0 F3600 X28.265 Y151.019
G1 F1800 X48.193 Y170.947 E1.40603
G1 X48.263 Y171.017
G0 F3600 X48.476 Y170.664
G1 F1800 X28.548 Y150.736 E1.40603
G1 X28.478 Y150.666
G0 F3600 X28.831 Y150.453
G1 F1800 X48.759 Y170.381 E1.40603
G1 X48.829 Y170.451
G0 F3600 X49.042 Y170.098
G1 F1800 X29.114 Y150.171 E1.40599
G1 X29.044 Y150.101
G0 F3600 X29.397 Y149.888
G1 F1800 X49.324 Y169.815 E1.40596
G1 X49.394 Y169.885
G0 F3600 X49.607 Y169.533
G1 F1800 X29.68 Y149.605 E1.40599
G1 X29.61 Y149.535
G0 F3600 X36.429 Y155.789
G1 F1800 X43.422 Y162.782 E0.49339
G1 X43.492 Y162.852
G0 F3600 X43.705 Y162.499
G1 F1800 X36.712 Y155.506 E0.49339
G1 X36.642 Y155.436
G0 F3600 X36.995 Y155.223
G1 F1800 X43.988 Y162.216 E0.49339
G1 X44.058 Y162.286
G0 F3600 X44.271 Y161.933
G1 F1800 X37.277 Y154.94 E0.49343
G1 X37.207 Y154.87
G0 F3600 X37.56 Y154.657
G1 F1800 X44.554 Y161.65 E0.49343
G1 X44.624 Y161.72
G0 F3600 X44.836 Y161.368
G1 F1800 X37.843 Y154.374 E0.49343
G1 X37.773 Y154.304
G0 F3600 X38.126 Y154.092
G1 F1800 X45.119 Y161.085 E0.49339
G1 X45.189 Y161.155
G0 F3600 X45.402 Y160.802
G1 F1800 X38.409 Y153.809 E0.49339
G1 X38.339 Y153.739
G0 F3600 X38.692 Y153.526
G1 F1800 X45.685 Y160.519 E0.49339
G1 X45.755 Y160.589
G0 F3600 X45.968 Y160.236
G1 F1800 X38.975 Y153.243 E0.49339
G1 X38.905 Y153.173
G0 F3600 X39.257 Y152.96
G1 F1800 X46.251 Y159.953 E0.49343
G1 X46.321 Y160.023
G0 F3600 X46.533 Y159.671
G1 F1800 X39.54 Y152.677 E0.49343
G1 X39.47 Y152.607
G0 F3600 X39.823 Y152.394
G1 F1800 X46.816 Y159.388 E0.49343
G1 X46.886 Y159.458
G0 F3600 X47.099 Y159.105
G1 F1800 X40.106 Y152.112 E0.49339
G1 X40.036 Y152.042
G0 F3600 X40.389 Y151.829
G1 F1800 X47.382 Y158.822 E0.49339
G1 X47.452 Y158.892
G0 F3600 X47.665 Y158.539
G1 F1800 X40.672 Y151.546 E0.49339
G1 X40.602 Y151.476
G0 F3600 X40.954 Y151.263
G1 F1800 X47.948 Y158.256 E0.49343
G1 X48.018 Y158.326
G0 F3600 X48.231 Y157.974
G1 F1800 X41.237 Y150.98 E0.49346
G1 X41.167 Y150.91
G0 F3600 X41.52 Y150.697
G1 F1800 X48.513 Y157.691 E0.49343
G1 X48.583 Y157.761
G0 F3600 X48.796 Y157.408
G1 F1800 X41.803 Y150.415 E0.49339
G1 X41.733 Y150.345
G0 F3600 X42.086 Y150.132
G1 F1800 X49.079 Y157.125 E0.49339
G1 X49.149 Y157.195
G0 F3600 X49.362 Y156.842
G1 F1800 X42.369 Y149.849 E0.49339
G1 X42.299 Y149.779
G0 F3600 X42.651 Y149.566
G1 F1800 X49.645 Y156.559 E0.49343
G1 X49.715 Y156.629
G0 F3600 X49.928 Y156.276
G1 F1800 X42.934 Y149.283 E0.49343
G1 X42.864 Y149.213
G0 F3600 X43.217 Y149
G1 F1800 X50.21 Y155.994 E0.49343
G1 X50.28 Y156.064
G0 F3600 X50.493 Y155.711
G1 F1800 X43.5 Y148.717 E0.49343
G1 X43.43 Y148.647
G0 F3600 X43.783 Y148.435
G1 F1800 X50.776 Y155.428 E0.49339
G1 X50.846 Y155.498
G0 F3600 X51.059 Y155.145
G1 F1800 X44.066 Y148.152 E0.49339
G1 X43.996 Y148.082
G0 F3600 X44.349 Y147.869
