;FLAVOR:Marlin
;TIME:3418
;Filament used: 3.36499m
;Layer height: 0.2
;Generated with Cura_SteamEngine 3.4.1
M190 S60
M104 S200
M109 S200
M82 ;absolute extrusion mode
; Start Gcode
G21 ;metric values
G90 ;absolute positioning
M82 ;set extruder to absolute mode
M107 ;start with the fan off
G28 X0 Y0 ;move X/Y to min endstops
G28 Z0 ;move Z to min endstops
G1 Z15.0 F9000 ;move the platform down 15mm
G92 E0 ;zero the extruded length
G1 F200 E3 ;extrude 3mm of feed stock
G92 E0 ;zero the extruded length again
G1 F9000
G92 E0
G1 F1500 E-6.5
;LAYER_COUNT:32
;LAYER:0
M107
G0 F3600 X26.593 Y13.203 Z0.3
;TYPE:SKIRT
G1 F1500 E0
G1 F1800 X26.941 Y12.494 E0.0394
G1 X27.359 Y11.823 E0.07884
G1 X27.842 Y11.199 E0.11821
G1 X28.385 Y10.626 E0.1576
G1 X28.984 Y10.111 E0.19701
G1 X29.632 Y9.66 E0.2364
G1 X30.323 Y9.276 E0.27583
G1 X31.048 Y8.964 E0.31521
G1 X31.801 Y8.727 E0.3546
G1 X32.575 Y8.568 E0.39402
G1 X33.36 Y8.487 E0.43339
G1 X33.762 Y8.477 E0.45345
G1 X84.562 Y8.477 E2.98787
G1 X85.351 Y8.517 E3.02729
G1 X86.131 Y8.636 E3.06665
G1 X86.896 Y8.834 E3.10608
G1 X87.636 Y9.108 E3.14544
G1 X88.345 Y9.456 E3.18485
G1 X89.016 Y9.874 E3.22429
G1 X89.64 Y10.357 E3.26366
G1 X90.213 Y10.9 E3.30304
G1 X90.728 Y11.499 E3.34245
G1 X91.179 Y12.147 E3.38184
G1 X91.563 Y12.838 E3.42128
G1 X91.875 Y13.563 E3.46066
G1 X92.112 Y14.316 E3.50004
G1 X92.271 Y15.09 E3.53946
G1 X92.352 Y15.875 E3.57883
G1 X92.362 Y16.277 E3.5989
G1 X92.362 Y41.677 E4.86611
G1 X92.322 Y42.466 E4.90552
G1 X92.203 Y43.246 E4.94489
G1 X92.005 Y44.011 E4.98431
G1 X91.731 Y44.751 E5.02368
G1 X91.383 Y45.46 E5.06308
G1 X90.965 Y46.131 E5.10252
G1 X90.482 Y46.755 E5.14189
G1 X89.939 Y47.328 E5.18127
G1 X89.34 Y47.843 E5.22068
G1 X88.692 Y48.294 E5.26007
G1 X88.001 Y48.678 E5.29951
G1 X87.276 Y48.99 E5.33889
G1 X86.523 Y49.227 E5.37827
G1 X85.749 Y49.386 E5.4177
G1 X84.964 Y49.467 E5.45707
G1 X84.562 Y49.477 E5.47713
G1 X33.762 Y49.477 E8.01155
G1 X32.973 Y49.437 E8.05097
G1 X32.193 Y49.318 E8.09033
G1 X31.428 Y49.12 E8.12975
G1 X30.688 Y48.846 E8.16912
G1 X29.979 Y48.498 E8.20853
G1 X29.308 Y48.08 E8.24797
G1 X28.684 Y47.597 E8.28733
G1 X28.111 Y47.054 E8.32672
G1 X27.596 Y46.455 E8.36613
G1 X27.145 Y45.807 E8.40552
G1 X26.761 Y45.116 E8.44496
G1 X26.449 Y44.391 E8.48433
G1 X26.212 Y43.638 E8.52372
G1 X26.053 Y42.864 E8.56314
G1 X25.972 Y42.079 E8.60251
G1 X25.962 Y41.677 E8.62257
G1 X25.962 Y16.277 E9.88978
G1 X26.002 Y15.488 E9.9292
G1 X26.121 Y14.708 E9.96856
G1 X26.319 Y13.943 E10.00799
G1 X26.593 Y13.203 E10.04735
G0 F3600 X26.993 Y13.287
G1 F1800 X27.34 Y12.601 E10.08571
G1 X27.756 Y11.954 E10.12408
G1 X28.237 Y11.354 E10.16245
G1 X28.778 Y10.807 E10.20083
G1 X29.373 Y10.319 E10.23922
G1 X30.015 Y9.896 E10.27758
G1 X30.698 Y9.541 E10.31598
G1 X31.413 Y9.26 E10.35431
G1 X32.155 Y9.054 E10.39273
G1 X32.913 Y8.926 E10.43108
G1 X33.762 Y8.877 E10.47351
G1 X84.562 Y8.877 E13.00793
G1 X85.33 Y8.917 E13.0463
G1 X86.09 Y9.036 E13.08468
G1 X86.833 Y9.234 E13.12304
G1 X87.552 Y9.508 E13.16143
G1 X88.238 Y9.855 E13.19978
G1 X88.885 Y10.271 E13.23816
G1 X89.485 Y10.752 E13.27652
G1 X90.032 Y11.293 E13.31491
G1 X90.52 Y11.888 E13.3533
G1 X90.943 Y12.53 E13.39165
G1 X91.298 Y13.213 E13.43006
G1 X91.579 Y13.928 E13.46838
G1 X91.785 Y14.67 E13.5068
G1 X91.913 Y15.428 E13.54516
G1 X91.962 Y16.277 E13.58758
G1 X91.962 Y41.677 E14.85479
G1 X91.922 Y42.445 E14.89316
G1 X91.803 Y43.205 E14.93154
G1 X91.605 Y43.948 E14.9699
G1 X91.331 Y44.667 E15.00829
G1 X90.984 Y45.353 E15.04664
G1 X90.568 Y46 E15.08502
G1 X90.087 Y46.6 E15.12338
G1 X89.546 Y47.147 E15.16177
G1 X88.951 Y47.635 E15.20016
G1 X88.309 Y48.058 E15.23852
G1 X87.626 Y48.413 E15.27692
G1 X86.911 Y48.694 E15.31525
G1 X86.169 Y48.9 E15.35366
G1 X85.411 Y49.028 E15.39202
G1 X84.562 Y49.077 E15.43444
G1 X33.762 Y49.077 E17.96887
G1 X32.994 Y49.037 E18.00723
G1 X32.234 Y48.918 E18.04561
G1 X31.491 Y48.72 E18.08397
G1 X30.772 Y48.446 E18.12236
G1 X30.086 Y48.099 E18.16072
G1 X29.439 Y47.683 E18.19909
G1 X28.839 Y47.202 E18.23746
G1 X28.292 Y46.661 E18.27584
G1 X27.804 Y46.066 E18.31423
G1 X27.381 Y45.424 E18.35259
G1 X27.026 Y44.741 E18.39099
G1 X26.745 Y44.026 E18.42932
G1 X26.539 Y43.284 E18.46774
G1 X26.411 Y42.526 E18.50609
G1 X26.362 Y41.677 E18.54852
G1 X26.362 Y16.277 E19.81573
G1 X26.402 Y15.509 E19.8541
G1 X26.521 Y14.749 E19.89247
G1 X26.719 Y14.006 E19.93084
G1 X26.993 Y13.287 E19.96922
G0 F3600 X27.392 Y13.374
G1 F1800 X27.739 Y12.711 E20.00656
G1 X28.154 Y12.088 E20.0439
G1 X28.633 Y11.514 E20.0812
G1 X29.17 Y10.993 E20.11853
G1 X29.76 Y10.534 E20.15582
G1 X30.396 Y10.139 E20.19318
G1 X31.07 Y9.815 E20.23049
G1 X31.775 Y9.565 E20.2678
G1 X32.503 Y9.391 E20.30515
G1 X33.245 Y9.296 E20.34247
G1 X33.762 Y9.277 E20.36828
G1 X84.562 Y9.277 E22.9027
G1 X85.309 Y9.317 E22.94002
G1 X86.047 Y9.436 E22.97732
G1 X86.769 Y9.634 E23.01467
G1 X87.465 Y9.907 E23.05197
G1 X88.128 Y10.254 E23.0893
G1 X88.751 Y10.669 E23.12665
G1 X89.325 Y11.148 E23.16394
G1 X89.846 Y11.685 E23.20127
G1 X90.305 Y12.275 E23.23857
G1 X90.7 Y12.911 E23.27592
G1 X91.024 Y13.585 E23.31323
G1 X91.274 Y14.29 E23.35055
G1 X91.448 Y15.018 E23.38789
G1 X91.543 Y15.76 E23.42521
G1 X91.562 Y16.277 E23.45102
G1 X91.562 Y41.677 E24.71823
G1 X91.522 Y42.424 E24.75555
G1 X91.403 Y43.162 E24.79285
G1 X91.205 Y43.884 E24.8302
G1 X90.932 Y44.58 E24.8675
G1 X90.585 Y45.243 E24.90483
G1 X90.17 Y45.866 E24.94218
G1 X89.691 Y46.44 E24.97948
G1 X89.154 Y46.961 E25.0168
G1 X88.564 Y47.42 E25.0541
G1 X87.928 Y47.815 E25.09145
G1 X87.254 Y48.139 E25.12876
G1 X86.549 Y48.389 E25.16608
G1 X85.821 Y48.563 E25.20342
G1 X85.079 Y48.658 E25.24074
G1 X84.562 Y48.677 E25.26655
G1 X33.762 Y48.677 E27.80097
G1 X33.015 Y48.637 E27.8383
G1 X32.277 Y48.518 E27.87559
G1 X31.555 Y48.32 E27.91294
G1 X30.859 Y48.047 E27.95024
G1 X30.196 Y47.7 E27.98757
G1 X29.573 Y47.285 E28.02492
G1 X28.999 Y46.806 E28.06222
G1 X28.478 Y46.269 E28.09955
G1 X28.019 Y45.679 E28.13684
G1 X27.624 Y45.043 E28.17419
G1 X27.3 Y44.369 E28.2115
G1 X27.05 Y43.664 E28.24882
G1 X26.876 Y42.936 E28.28616
G1 X26.781 Y42.194 E28.32348
G1 X26.762 Y41.677 E28.34929
G1 X26.762 Y16.277 E29.61651
G1 X26.802 Y15.53 E29.65383
G1 X26.921 Y14.792 E29.69112
G1 X27.119 Y14.07 E29.72847
G1 X27.392 Y13.374 E29.76577
G0 F3600 X27.792 Y13.463
G1 F1800 X28.137 Y12.824 E29.802
G1 X28.551 Y12.227 E29.83825
G1 X29.027 Y11.679 E29.87446
G1 X29.561 Y11.186 E29.91072
G1 X30.146 Y10.756 E29.94694
G1 X30.775 Y10.392 E29.9832
G1 X31.44 Y10.099 E30.01945
G1 X32.133 Y9.881 E30.0557
G1 X32.845 Y9.741 E30.0919
G1 X33.762 Y9.677 E30.13776
G1 X84.562 Y9.677 E32.67218
G1 X85.287 Y9.717 E32.70841
G1 X86.004 Y9.836 E32.74467
G1 X86.703 Y10.034 E32.78091
G1 X87.376 Y10.307 E32.81715
G1 X88.015 Y10.652 E32.85338
G1 X88.612 Y11.066 E32.88962
G1 X89.16 Y11.542 E32.92583
G1 X89.653 Y12.076 E32.96209
G1 X90.083 Y12.661 E32.99832
G1 X90.447 Y13.29 E33.03457
G1 X90.74 Y13.955 E33.07083
G1 X90.958 Y14.648 E33.10707
G1 X91.098 Y15.36 E33.14327
G1 X91.162 Y16.277 E33.18913
G1 X91.162 Y41.677 E34.45634
G1 X91.122 Y42.402 E34.49257
G1 X91.003 Y43.119 E34.52883
G1 X90.805 Y43.818 E34.56508
G1 X90.532 Y44.491 E34.60131
G1 X90.187 Y45.13 E34.63754
G1 X89.773 Y45.727 E34.67378
G1 X89.297 Y46.275 E34.71
G1 X88.763 Y46.768 E34.74626
G1 X88.178 Y47.198 E34.78248
G1 X87.549 Y47.562 E34.81874
G1 X86.884 Y47.855 E34.85499
G1 X86.191 Y48.073 E34.89123
G1 X85.479 Y48.213 E34.92744
G1 X84.562 Y48.277 E34.9733
G1 X33.762 Y48.277 E37.50772
G1 X33.037 Y48.237 E37.54394
G1 X32.32 Y48.118 E37.58021
G1 X31.621 Y47.92 E37.61645
G1 X30.948 Y47.647 E37.65268
G1 X30.309 Y47.302 E37.68891
G1 X29.712 Y46.888 E37.72516
G1 X29.164 Y46.412 E37.76137
G1 X28.671 Y45.878 E37.79763
G1 X28.241 Y45.293 E37.83385
G1 X27.877 Y44.664 E37.87011
G1 X27.584 Y43.999 E37.90636
G1 X27.366 Y43.306 E37.94261
G1 X27.226 Y42.594 E37.97881
G1 X27.162 Y41.677 E38.02467
G1 X27.162 Y16.277 E39.29188
G1 X27.202 Y15.552 E39.32811
G1 X27.321 Y14.835 E39.36437
G1 X27.519 Y14.136 E39.40061
G1 X27.792 Y13.463 E39.43685
G0 F3600 X28.191 Y13.556
G1 F1800 X28.536 Y12.942 E39.47198
G1 X28.947 Y12.371 E39.50708
G1 X29.421 Y11.85 E39.54222
G1 X29.951 Y11.386 E39.57737
G1 X30.53 Y10.986 E39.61248
G1 X31.151 Y10.654 E39.64761
G1 X31.805 Y10.394 E39.68272
G1 X32.485 Y10.21 E39.71787
G1 X33.181 Y10.104 E39.75299
G1 X33.762 Y10.077 E39.78201
G1 X84.562 Y10.077 E42.31643
G1 X85.265 Y10.117 E42.35156
G1 X85.959 Y10.236 E42.38669
G1 X86.634 Y10.434 E42.42178
G1 X87.283 Y10.706 E42.45689
G1 X87.897 Y11.051 E42.49203
G1 X88.468 Y11.462 E42.52713
G1 X88.989 Y11.936 E42.56227
G1 X89.453 Y12.466 E42.59741
G1 X89.853 Y13.045 E42.63252
G1 X90.185 Y13.666 E42.66765
G1 X90.445 Y14.32 E42.70276
G1 X90.629 Y15 E42.73791
G1 X90.735 Y15.696 E42.77303
G1 X90.762 Y16.277 E42.80205
G1 X90.762 Y41.677 E44.06926
G1 X90.722 Y42.38 E44.10439
G1 X90.603 Y43.074 E44.13952
G1 X90.405 Y43.749 E44.17462
G1 X90.133 Y44.398 E44.20972
G1 X89.788 Y45.012 E44.24486
G1 X89.377 Y45.583 E44.27996
G1 X88.903 Y46.104 E44.3151
G1 X88.373 Y46.568 E44.35024
G1 X87.794 Y46.968 E44.38535
G1 X87.173 Y47.3 E44.42048
G1 X86.519 Y47.56 E44.4556
G1 X85.839 Y47.744 E44.49074
G1 X85.143 Y47.85 E44.52587
G1 X84.562 Y47.877 E44.55488
G1 X33.762 Y47.877 E47.08931
G1 X33.059 Y47.837 E47.12443
G1 X32.365 Y47.718 E47.15956
G1 X31.69 Y47.52 E47.19466
G1 X31.041 Y47.248 E47.22977
G1 X30.427 Y46.903 E47.2649
G1 X29.856 Y46.492 E47.3
G1 X29.335 Y46.018 E47.33514
G1 X28.871 Y45.488 E47.37029
G1 X28.471 Y44.909 E47.4054
G1 X28.139 Y44.288 E47.44053
G1 X27.879 Y43.634 E47.47564
G1 X27.695 Y42.954 E47.51078
G1 X27.589 Y42.258 E47.54591
G1 X27.562 Y41.677 E47.57493
G1 X27.562 Y16.277 E48.84214
G1 X27.602 Y15.574 E48.87727
G1 X27.721 Y14.88 E48.9124
G1 X27.919 Y14.205 E48.94749
G1 X28.191 Y13.556 E48.9826
G0 F3600 X28.318 Y14.275
G1 F1800 X28.59 Y13.651 E49.01656
G1 X28.934 Y13.063 E49.05055
G1 X29.344 Y12.519 E49.08453
G1 X29.815 Y12.028 E49.11848
G1 X30.34 Y11.594 E49.15246
G1 X30.912 Y11.225 E49.18642
G1 X31.524 Y10.926 E49.2204
G1 X32.166 Y10.701 E49.25434
G1 X32.831 Y10.552 E49.28834
G1 X33.762 Y10.477 E49.33494
G1 X84.562 Y10.477 E51.86936
G1 X85.242 Y10.517 E51.90334
G1 X85.912 Y10.636 E51.93729
G1 X86.564 Y10.833 E51.97127
G1 X87.188 Y11.105 E52.00524
G1 X87.776 Y11.449 E52.03922
G1 X88.32 Y11.859 E52.07321
G1 X88.811 Y12.33 E52.10715
G1 X89.245 Y12.855 E52.14114
G1 X89.614 Y13.427 E52.1751
G1 X89.913 Y14.039 E52.20908
G1 X90.138 Y14.681 E52.24302
G1 X90.287 Y15.346 E52.27702
G1 X90.362 Y16.277 E52.32361
G1 X90.362 Y41.677 E53.59083
G1 X90.322 Y42.357 E53.62481
G1 X90.203 Y43.027 E53.65876
G1 X90.006 Y43.679 E53.69274
G1 X89.734 Y44.303 E53.7267
G1 X89.39 Y44.891 E53.76069
G1 X88.98 Y45.435 E53.79467
G1 X88.509 Y45.926 E53.82862
G1 X87.984 Y46.36 E53.8626
G1 X87.412 Y46.729 E53.89656
G1 X86.8 Y47.028 E53.93054
G1 X86.158 Y47.253 E53.96448
G1 X85.493 Y47.402 E53.99848
G1 X84.562 Y47.477 E54.04508
G1 X33.762 Y47.477 E56.5795
G1 X33.082 Y47.437 E56.61349
G1 X32.412 Y47.318 E56.64744
G1 X31.76 Y47.121 E56.68142
G1 X31.136 Y46.849 E56.71538
G1 X30.548 Y46.505 E56.74936
G1 X30.004 Y46.095 E56.78335
G1 X29.513 Y45.624 E56.81729
G1 X29.079 Y45.099 E56.85128
G1 X28.71 Y44.527 E56.88524
G1 X28.411 Y43.915 E56.91922
G1 X28.186 Y43.273 E56.95316
G1 X28.037 Y42.608 E56.98716
G1 X27.962 Y41.677 E57.03376
G1 X27.962 Y16.277 E58.30097
G1 X28.002 Y15.597 E58.33495
G1 X28.121 Y14.927 E58.3689
G1 X28.318 Y14.275 E58.40288
G0 F3600 X28.718 Y14.348
G1 F1800 X28.99 Y13.75 E58.43566
G1 X29.332 Y13.189 E58.46844
G1 X29.74 Y12.674 E58.50122
G1 X30.207 Y12.212 E58.53399
G1 X30.727 Y11.811 E58.56675
G1 X31.291 Y11.475 E58.5995
G1 X31.893 Y11.211 E58.6323
G1 X32.522 Y11.021 E58.66508
G1 X33.169 Y10.91 E58.69783
G1 X33.762 Y10.877 E58.72746
G1 X84.562 Y10.877 E61.26188
G1 X85.218 Y10.917 E61.29467
G1 X85.864 Y11.036 E61.32744
G1 X86.491 Y11.233 E61.36023
G1 X87.089 Y11.505 E61.39301
G1 X87.65 Y11.847 E61.42579
G1 X88.165 Y12.255 E61.45857
G1 X88.627 Y12.722 E61.49134
G1 X89.028 Y13.242 E61.5241
G1 X89.364 Y13.806 E61.55685
G1 X89.628 Y14.408 E61.58965
G1 X89.818 Y15.037 E61.62243
G1 X89.929 Y15.684 E61.65518
G1 X89.962 Y16.277 E61.68481
G1 X89.962 Y41.677 E62.95202
G1 X89.922 Y42.333 E62.98481
G1 X89.803 Y42.979 E63.01758
G1 X89.606 Y43.606 E63.05037
G1 X89.334 Y44.204 E63.08315
G1 X88.992 Y44.765 E63.11593
G1 X88.584 Y45.28 E63.14871
G1 X88.117 Y45.742 E63.18148
G1 X87.597 Y46.143 E63.21424
G1 X87.033 Y46.479 E63.24699
G1 X86.431 Y46.743 E63.27979
G1 X85.802 Y46.933 E63.31257
G1 X85.155 Y47.044 E63.34532
G1 X84.562 Y47.077 E63.37495
G1 X33.762 Y47.077 E65.90937
G1 X33.106 Y47.037 E65.94216
G1 X32.46 Y46.918 E65.97493
G1 X31.833 Y46.721 E66.00772
G1 X31.235 Y46.449 E66.0405
G1 X30.674 Y46.107 E66.07328
G1 X30.159 Y45.699 E66.10606
G1 X29.697 Y45.232 E66.13883
G1 X29.296 Y44.712 E66.17159
G1 X28.96 Y44.148 E66.20434
G1 X28.696 Y43.546 E66.23714
G1 X28.506 Y42.917 E66.26992
G1 X28.395 Y42.27 E66.30267
G1 X28.362 Y41.677 E66.3323
G1 X28.362 Y16.277 E67.59951
G1 X28.402 Y15.621 E67.6323
G1 X28.521 Y14.975 E67.66507
G1 X28.718 Y14.348 E67.69786
G0 F3600 X29.118 Y14.425
G1 F1800 X29.389 Y13.853 E67.72944
G1 X29.729 Y13.321 E67.76094
G1 X30.135 Y12.836 E67.79249
G1 X30.598 Y12.406 E67.82402
G1 X31.112 Y12.037 E67.85559
G1 X31.668 Y11.737 E67.8871
G1 X32.257 Y11.509 E67.91861
G1 X32.871 Y11.357 E67.95017
G1 X33.762 Y11.277 E67.9948
G1 X84.562 Y11.277 E70.52923
G1 X85.193 Y11.317 E70.56077
G1 X85.814 Y11.436 E70.59231
G1 X86.414 Y11.633 E70.62382
G1 X86.986 Y11.904 E70.6554
G1 X87.518 Y12.244 E70.6869
G1 X88.003 Y12.65 E70.71845
G1 X88.433 Y13.113 E70.74998
G1 X88.802 Y13.627 E70.78155
G1 X89.102 Y14.183 E70.81306
G1 X89.33 Y14.772 E70.84457
G1 X89.482 Y15.386 E70.87613
G1 X89.562 Y16.277 E70.92076
G1 X89.562 Y41.677 E72.18797
G1 X89.522 Y42.308 E72.21952
G1 X89.403 Y42.929 E72.25106
G1 X89.206 Y43.529 E72.28257
G1 X88.935 Y44.101 E72.31415
G1 X88.595 Y44.633 E72.34565
G1 X88.189 Y45.118 E72.3772
G1 X87.726 Y45.548 E72.40873
G1 X87.212 Y45.917 E72.44029
G1 X86.656 Y46.217 E72.47181
G1 X86.067 Y46.445 E72.50332
G1 X85.453 Y46.597 E72.53488
G1 X84.562 Y46.677 E72.57951
G1 X33.762 Y46.677 E75.11393
G1 X33.131 Y46.637 E75.14548
G1 X32.51 Y46.518 E75.17702
G1 X31.91 Y46.321 E75.20853
G1 X31.338 Y46.05 E75.24011
G1 X30.806 Y45.71 E75.27161
G1 X30.321 Y45.304 E75.30316
G1 X29.891 Y44.841 E75.33469
G1 X29.522 Y44.327 E75.36625
G1 X29.222 Y43.771 E75.39777
G1 X28.994 Y43.182 E75.42928
G1 X28.842 Y42.568 E75.46084
G1 X28.762 Y41.677 E75.50547
G1 X28.762 Y16.277 E76.77268
G1 X28.802 Y15.646 E76.80423
G1 X28.921 Y15.025 E76.83577
G1 X29.118 Y14.425 E76.86728
G0 F3600 X29.517 Y14.504
G1 F1800 X29.788 Y13.961 E76.89756
G1 X30.127 Y13.458 E76.92782
G1 X30.529 Y13.005 E76.95803
G1 X30.987 Y12.608 E76.98827
G1 X31.494 Y12.275 E77.01854
G1 X32.04 Y12.011 E77.04879
G1 X32.616 Y11.822 E77.07904
G1 X33.212 Y11.71 E77.10929
G1 X33.762 Y11.677 E77.13678
G1 X84.562 Y11.677 E79.6712
G1 X85.167 Y11.717 E79.70145
G1 X85.761 Y11.836 E79.73168
G1 X86.335 Y12.032 E79.76194
G1 X86.878 Y12.303 E79.79221
G1 X87.381 Y12.642 E79.82248
G1 X87.834 Y13.044 E79.85269
G1 X88.231 Y13.502 E79.88293
G1 X88.564 Y14.009 E79.91319
G1 X88.828 Y14.555 E79.94345
G1 X89.017 Y15.131 E79.97369
G1 X89.129 Y15.727 E80.00395
G1 X89.162 Y16.277 E80.03144
G1 X89.162 Y41.677 E81.29865
G1 X89.122 Y42.282 E81.3289
G1 X89.003 Y42.876 E81.35912
G1 X88.807 Y43.45 E81.38938
G1 X88.536 Y43.993 E81.41966
G1 X88.197 Y44.496 E81.44992
G1 X87.795 Y44.949 E81.48014
G1 X87.337 Y45.346 E81.51038
G1 X86.83 Y45.679 E81.54064
G1 X86.284 Y45.943 E81.5709
G1 X85.708 Y46.132 E81.60114
G1 X85.112 Y46.244 E81.6314
G1 X84.562 Y46.277 E81.65889
G1 X33.762 Y46.277 E84.19331
G1 X33.157 Y46.237 E84.22356
G1 X32.563 Y46.118 E84.25378
G1 X31.989 Y45.922 E84.28404
G1 X31.446 Y45.651 E84.31432
G1 X30.943 Y45.312 E84.34458
G1 X30.49 Y44.91 E84.3748
G1 X30.093 Y44.452 E84.40503
G1 X29.76 Y43.945 E84.4353
G1 X29.496 Y43.399 E84.46555
G1 X29.307 Y42.823 E84.4958
G1 X29.195 Y42.227 E84.52605
G1 X29.162 Y41.677 E84.55354
G1 X29.162 Y16.277 E85.82075
G1 X29.202 Y15.672 E85.851
G1 X29.321 Y15.078 E85.88123
