;FLAVOR:Marlin
;TIME:5190
;Filament used: 5.33693m
;Layer height: 0.2
;Generated with Cura_SteamEngine 3.4.1
M190 S60
M104 S200
M109 S200
M82 ;absolute extrusion mode
; Start Gcode
G21 ;metric values
G90 ;absolute positioning
M82 ;set extruder to absolute mode
M107 ;start with the fan off
G28 X0 Y0 ;move X/Y to min endstops
G28 Z0 ;move Z to min endstops
G1 Z15.0 F9000 ;move the platform down 15mm
G92 E0 ;zero the extruded length
G1 F200 E3 ;extrude 3mm of feed stock
G92 E0 ;zero the extruded length again
G1 F9000
G92 E0
G1 F1500 E-6.5
;LAYER_COUNT:64
;LAYER:0
M107
G0 F3600 X43.992 Y65.526 Z0.3
;TYPE:SKIRT
G1 F1500 E0
G1 F1800 X44.683 Y65.142 E0.03944
G1 X45.408 Y64.83 E0.07882
G1 X46.161 Y64.593 E0.1182
G1 X46.935 Y64.434 E0.15762
G1 X47.72 Y64.353 E0.19699
G1 X48.122 Y64.343 E0.21706
G1 X69.339 Y64.343 E1.27558
G1 X71.036 Y62.114 E1.41534
G1 X71.461 Y61.603 E1.4485
G1 X73.65 Y59.186 E1.61119
G1 X74.123 Y58.707 E1.64478
G1 X76.512 Y56.488 E1.80745
G1 X77.017 Y56.057 E1.84057
G1 X79.584 Y54.051 E2.0031
G1 X80.126 Y53.664 E2.03633
G1 X82.858 Y51.882 E2.19906
G1 X83.433 Y51.541 E2.23241
G1 X86.305 Y50.001 E2.395
G1 X86.905 Y49.711 E2.42824
G1 X89.9 Y48.421 E2.59094
G1 X90.369 Y48.237 E2.61607
G1 X91.905 Y47.69 E2.69742
G1 X92.381 Y47.538 E2.72235
G1 X95.516 Y46.643 E2.885
G1 X96 Y46.521 E2.9099
G1 X97.592 Y46.175 E2.99118
G1 X98.084 Y46.084 E3.01614
G1 X101.309 Y45.597 E3.17886
G1 X101.974 Y45.526 E3.21223
G1 X105.228 Y45.317 E3.37491
G1 X105.896 Y45.303 E3.40824
G1 X109.154 Y45.373 E3.57082
G1 X109.818 Y45.416 E3.60402
G1 X113.06 Y45.764 E3.76669
G1 X113.721 Y45.863 E3.80004
G1 X116.92 Y46.487 E3.96264
G1 X117.568 Y46.643 E3.99589
G1 X120.703 Y47.538 E4.15855
G1 X121.18 Y47.691 E4.18354
G1 X122.715 Y48.238 E4.26484
G1 X123.028 Y48.356 E4.28153
G1 X124.54 Y48.969 E4.36293
G1 X124.997 Y49.172 E4.38787
G1 X127.933 Y50.588 E4.5505
G1 X128.521 Y50.903 E4.58378
G1 X131.326 Y52.565 E4.74644
G1 X131.886 Y52.931 E4.77982
G1 X134.538 Y54.827 E4.94246
G1 X135.063 Y55.237 E4.97569
G1 X137.543 Y57.352 E5.13831
G1 X138.032 Y57.806 E5.17159
G1 X138.067 Y57.841 E5.17406
G1 X138.375 Y57.778 E5.18975
G1 X139.16 Y57.697 E5.22912
G1 X139.562 Y57.687 E5.24918
G1 X170.042 Y57.687 E6.76984
G1 X170.831 Y57.727 E6.80925
G1 X171.611 Y57.846 E6.84861
G1 X172.376 Y58.044 E6.88804
G1 X173.116 Y58.318 E6.92741
G1 X173.825 Y58.666 E6.96681
G1 X174.496 Y59.084 E7.00625
G1 X175.12 Y59.567 E7.04562
G1 X175.693 Y60.11 E7.085
G1 X176.208 Y60.709 E7.12441
G1 X176.659 Y61.357 E7.1638
G1 X177.043 Y62.048 E7.20324
G1 X177.355 Y62.773 E7.24262
G1 X177.592 Y63.526 E7.282
G1 X177.751 Y64.3 E7.32142
G1 X177.832 Y65.085 E7.3608
G1 X177.842 Y65.487 E7.38086
G1 X177.842 Y73.107 E7.76102
G1 X177.802 Y73.896 E7.80044
G1 X177.683 Y74.676 E7.8398
G1 X177.485 Y75.441 E7.87922
G1 X177.211 Y76.181 E7.91859
G1 X176.863 Y76.89 E7.95799
G1 X176.445 Y77.561 E7.99744
G1 X175.962 Y78.185 E8.0368
G1 X175.419 Y78.758 E8.07619
G1 X174.82 Y79.273 E8.1156
G1 X174.172 Y79.724 E8.15499
G1 X173.481 Y80.108 E8.19443
G1 X172.756 Y80.42 E8.2338
G1 X172.003 Y80.657 E8.27319
G1 X171.229 Y80.816 E8.31261
G1 X170.444 Y80.897 E8.35198
G1 X170.042 Y80.907 E8.37204
G1 X152.442 Y80.907 E9.25011
G1 X152.442 Y107.979 E10.60074
G1 X170.042 Y107.979 E11.47881
G1 X170.831 Y108.019 E11.51822
G1 X171.611 Y108.138 E11.55758
G1 X172.376 Y108.336 E11.59701
G1 X173.116 Y108.61 E11.63638
G1 X173.825 Y108.958 E11.67578
G1 X174.496 Y109.376 E11.71522
G1 X175.12 Y109.859 E11.75459
G1 X175.693 Y110.402 E11.79397
G1 X176.208 Y111.001 E11.83338
G1 X176.659 Y111.649 E11.87277
G1 X177.043 Y112.34 E11.91221
G1 X177.355 Y113.065 E11.95159
G1 X177.592 Y113.818 E11.99097
G1 X177.751 Y114.592 E12.03039
G1 X177.832 Y115.377 E12.06977
G1 X177.842 Y115.779 E12.08983
G1 X177.842 Y123.399 E12.46999
G1 X177.802 Y124.188 E12.50941
G1 X177.683 Y124.968 E12.54877
G1 X177.485 Y125.733 E12.58819
G1 X177.211 Y126.473 E12.62756
G1 X176.863 Y127.182 E12.66696
G1 X176.445 Y127.853 E12.70641
G1 X175.962 Y128.477 E12.74577
G1 X175.419 Y129.05 E12.78516
G1 X174.82 Y129.565 E12.82457
G1 X174.172 Y130.016 E12.86396
G1 X173.481 Y130.4 E12.9034
G1 X172.756 Y130.712 E12.94277
G1 X172.003 Y130.949 E12.98216
G1 X171.229 Y131.108 E13.02158
G1 X170.444 Y131.189 E13.06095
G1 X170.042 Y131.199 E13.08101
G1 X139.562 Y131.199 E14.60167
G1 X138.773 Y131.159 E14.64108
G1 X137.993 Y131.04 E14.68045
G1 X137.228 Y130.842 E14.71987
G1 X136.488 Y130.568 E14.75924
G1 X135.779 Y130.22 E14.79864
G1 X135.108 Y129.802 E14.83808
G1 X134.484 Y129.319 E14.87745
G1 X133.911 Y128.776 E14.91683
G1 X133.519 Y128.32 E14.94683
G1 X133.5 Y128.335 E14.94804
G1 X132.957 Y128.723 E14.98134
G1 X130.225 Y130.504 E15.14404
G1 X129.651 Y130.844 E15.17733
G1 X126.779 Y132.384 E15.33991
G1 X126.181 Y132.673 E15.37304
G1 X123.187 Y133.964 E15.53571
G1 X122.71 Y134.151 E15.56127
G1 X121.173 Y134.697 E15.64265
G1 X120.703 Y134.847 E15.66726
G1 X117.568 Y135.742 E15.82992
G1 X117.084 Y135.864 E15.85482
G1 X115.492 Y136.21 E15.9361
G1 X115 Y136.301 E15.96106
G1 X111.776 Y136.788 E16.12373
G1 X111.111 Y136.859 E16.1571
G1 X107.856 Y137.068 E16.31982
G1 X107.188 Y137.082 E16.35316
G1 X103.931 Y137.012 E16.51569
G1 X103.267 Y136.969 E16.54888
G1 X100.025 Y136.621 E16.71156
G1 X99.365 Y136.522 E16.74485
G1 X96.164 Y135.898 E16.90756
G1 X95.516 Y135.743 E16.9408
G1 X92.383 Y134.849 E17.10334
G1 X91.902 Y134.694 E17.12856
G1 X90.366 Y134.146 E17.20992
G1 X89.901 Y133.964 E17.23483
G1 X86.906 Y132.674 E17.39752
G1 X86.307 Y132.385 E17.4307
G1 X83.434 Y130.845 E17.59333
G1 X82.86 Y130.505 E17.62661
G1 X80.129 Y128.725 E17.78925
G1 X79.583 Y128.335 E17.82273
G1 X77.015 Y126.327 E17.98536
G1 X76.51 Y125.896 E18.01848
G1 X74.122 Y123.677 E18.18112
G1 X73.652 Y123.2 E18.21453
G1 X71.463 Y120.784 E18.37718
G1 X71.037 Y120.272 E18.41041
G1 X69.34 Y118.043 E18.55017
G1 X48.122 Y118.043 E19.60874
G1 X47.333 Y118.003 E19.64816
G1 X46.553 Y117.884 E19.68752
G1 X45.788 Y117.686 E19.72695
G1 X45.048 Y117.412 E19.76631
G1 X44.339 Y117.064 E19.80572
G1 X43.668 Y116.646 E19.84516
G1 X43.044 Y116.163 E19.88453
G1 X42.471 Y115.62 E19.92391
G1 X41.956 Y115.021 E19.96332
G1 X41.505 Y114.373 E20.00271
G1 X41.121 Y113.682 E20.04215
G1 X40.809 Y112.957 E20.08153
G1 X40.572 Y112.204 E20.12091
G1 X40.413 Y111.43 E20.16033
G1 X40.332 Y110.645 E20.1997
G1 X40.322 Y110.243 E20.21976
G1 X40.322 Y103.893 E20.53657
G1 X40.362 Y103.104 E20.57598
G1 X40.481 Y102.324 E20.61535
G1 X40.679 Y101.559 E20.65477
G1 X40.953 Y100.819 E20.69414
G1 X41.301 Y100.11 E20.73354
G1 X41.719 Y99.439 E20.77298
G1 X42.202 Y98.815 E20.81235
G1 X42.745 Y98.242 E20.85173
G1 X43.344 Y97.727 E20.89114
G1 X43.992 Y97.276 E20.93053
G1 X44.683 Y96.892 E20.96997
G1 X45.408 Y96.58 E21.00935
G1 X46.161 Y96.343 E21.04873
G1 X46.935 Y96.184 E21.08816
G1 X47.72 Y96.103 E21.12753
G1 X48.122 Y96.093 E21.14759
G1 X59.182 Y96.093 E21.69938
G1 X59.182 Y86.547 E22.17563
G1 X48.122 Y86.547 E22.72741
G1 X47.333 Y86.507 E22.76683
G1 X46.553 Y86.388 E22.80619
G1 X45.788 Y86.19 E22.84561
G1 X45.048 Y85.916 E22.88498
G1 X44.339 Y85.568 E22.92439
G1 X43.668 Y85.15 E22.96383
G1 X43.044 Y84.667 E23.0032
G1 X42.471 Y84.124 E23.04258
G1 X41.956 Y83.525 E23.08199
G1 X41.505 Y82.877 E23.12138
G1 X41.121 Y82.186 E23.16082
G1 X40.809 Y81.461 E23.2002
G1 X40.572 Y80.708 E23.23958
G1 X40.413 Y79.934 E23.279
G1 X40.332 Y79.149 E23.31837
G1 X40.322 Y78.747 E23.33843
G1 X40.322 Y72.143 E23.66791
G1 X40.362 Y71.354 E23.70732
G1 X40.481 Y70.574 E23.74669
G1 X40.679 Y69.809 E23.78611
G1 X40.953 Y69.069 E23.82548
G1 X41.301 Y68.36 E23.86488
G1 X41.719 Y67.689 E23.90432
G1 X42.202 Y67.065 E23.94369
G1 X42.745 Y66.492 E23.98308
G1 X43.344 Y65.977 E24.02249
G1 X43.992 Y65.526 E24.06188
G0 F3600 X44.375 Y65.762
G1 F1800 X45.058 Y65.407 E24.10028
G1 X45.773 Y65.126 E24.13861
G1 X46.515 Y64.92 E24.17702
G1 X47.273 Y64.792 E24.21538
G1 X48.122 Y64.743 E24.2578
G1 X69.537 Y64.743 E25.3262
G1 X71.354 Y62.356 E25.47587
G1 X71.757 Y61.872 E25.50729
G1 X73.946 Y59.455 E25.66998
G1 X74.395 Y59 E25.70187
G1 X76.784 Y56.781 E25.86454
G1 X77.263 Y56.372 E25.89596
G1 X79.83 Y54.366 E26.0585
G1 X80.344 Y53.999 E26.09001
G1 X83.076 Y52.217 E26.25274
G1 X83.622 Y51.893 E26.28441
G1 X86.494 Y50.353 E26.447
G1 X87.064 Y50.079 E26.47855
G1 X90.059 Y48.789 E26.64124
G1 X90.503 Y48.614 E26.66505
G1 X92.039 Y48.067 E26.7464
G1 X92.491 Y47.922 E26.77008
G1 X95.626 Y47.027 E26.93273
G1 X96.085 Y46.912 E26.95634
G1 X97.677 Y46.566 E27.03762
G1 X98.144 Y46.48 E27.06131
G1 X101.369 Y45.993 E27.22403
G1 X102 Y45.925 E27.25569
G1 X105.254 Y45.716 E27.41837
G1 X105.887 Y45.703 E27.44996
G1 X109.145 Y45.773 E27.61254
G1 X109.776 Y45.813 E27.64408
G1 X113.018 Y46.161 E27.80675
G1 X113.645 Y46.256 E27.83839
G1 X116.844 Y46.88 E28.001
G1 X117.458 Y47.027 E28.0325
G1 X120.593 Y47.922 E28.19515
G1 X121.046 Y48.067 E28.21888
G1 X122.581 Y48.614 E28.30018
G1 X122.877 Y48.727 E28.31599
G1 X124.389 Y49.34 E28.39739
G1 X124.824 Y49.533 E28.42113
G1 X127.76 Y50.949 E28.58375
G1 X128.317 Y51.248 E28.61529
G1 X131.122 Y52.91 E28.77795
G1 X131.654 Y53.256 E28.80961
G1 X134.306 Y55.152 E28.97226
G1 X134.804 Y55.541 E29.00379
G1 X137.284 Y57.656 E29.1664
G1 X137.747 Y58.087 E29.19796
G1 X137.929 Y58.271 E29.21087
G1 X137.955 Y58.264 E29.21221
G1 X138.713 Y58.136 E29.25056
G1 X139.562 Y58.087 E29.29299
G1 X170.042 Y58.087 E30.81364
G1 X170.81 Y58.127 E30.85201
G1 X171.57 Y58.246 E30.89039
G1 X172.313 Y58.444 E30.92875
G1 X173.032 Y58.718 E30.96714
G1 X173.718 Y59.065 E31.00549
G1 X174.365 Y59.481 E31.04387
G1 X174.965 Y59.962 E31.08223
G1 X175.512 Y60.503 E31.12062
G1 X176 Y61.098 E31.15901
G1 X176.423 Y61.74 E31.19737
G1 X176.778 Y62.423 E31.23577
G1 X177.059 Y63.138 E31.2741
G1 X177.265 Y63.88 E31.31252
G1 X177.393 Y64.638 E31.35087
G1 X177.442 Y65.487 E31.39329
G1 X177.442 Y73.107 E31.77346
G1 X177.402 Y73.875 E31.81183
G1 X177.283 Y74.635 E31.8502
G1 X177.085 Y75.378 E31.88857
G1 X176.811 Y76.097 E31.92695
G1 X176.464 Y76.783 E31.96531
G1 X176.048 Y77.43 E32.00368
G1 X175.567 Y78.03 E32.04205
G1 X175.026 Y78.577 E32.08043
G1 X174.431 Y79.065 E32.11882
G1 X173.789 Y79.488 E32.15718
G1 X173.106 Y79.843 E32.19558
G1 X172.391 Y80.124 E32.23391
G1 X171.649 Y80.33 E32.27233
G1 X170.891 Y80.458 E32.31068
G1 X170.042 Y80.507 E32.35311
G1 X152.042 Y80.507 E33.25113
G1 X152.042 Y108.379 E34.64167
G1 X170.042 Y108.379 E35.5397
G1 X170.81 Y108.419 E35.57806
G1 X171.57 Y108.538 E35.61644
G1 X172.313 Y108.736 E35.6548
G1 X173.032 Y109.01 E35.69319
G1 X173.718 Y109.357 E35.73155
G1 X174.365 Y109.773 E35.76992
G1 X174.965 Y110.254 E35.80829
G1 X175.512 Y110.795 E35.84667
G1 X176 Y111.39 E35.88506
G1 X176.423 Y112.032 E35.92342
G1 X176.778 Y112.715 E35.96182
G1 X177.059 Y113.43 E36.00015
G1 X177.265 Y114.172 E36.03857
G1 X177.393 Y114.93 E36.07692
G1 X177.442 Y115.779 E36.11935
G1 X177.442 Y123.399 E36.49951
G1 X177.402 Y124.167 E36.53788
G1 X177.283 Y124.927 E36.57626
G1 X177.085 Y125.67 E36.61462
G1 X176.811 Y126.389 E36.65301
G1 X176.464 Y127.075 E36.69136
G1 X176.048 Y127.722 E36.72973
G1 X175.567 Y128.322 E36.7681
G1 X175.026 Y128.869 E36.80648
G1 X174.431 Y129.357 E36.84487
G1 X173.789 Y129.78 E36.88323
G1 X173.106 Y130.135 E36.92163
G1 X172.391 Y130.416 E36.95996
G1 X171.649 Y130.622 E36.99838
G1 X170.891 Y130.75 E37.03673
G1 X170.042 Y130.799 E37.07916
G1 X139.562 Y130.799 E38.59981
G1 X138.794 Y130.759 E38.63818
G1 X138.034 Y130.64 E38.67656
G1 X137.291 Y130.442 E38.71492
G1 X136.572 Y130.168 E38.75331
G1 X135.886 Y129.821 E38.79166
G1 X135.239 Y129.405 E38.83004
G1 X134.639 Y128.924 E38.8684
G1 X134.092 Y128.383 E38.90679
G1 X133.604 Y127.788 E38.94518
G1 X133.586 Y127.761 E38.9468
G1 X133.254 Y128.02 E38.96781
G1 X132.738 Y128.388 E38.99942
G1 X130.006 Y130.169 E39.16213
G1 X129.462 Y130.492 E39.19369
G1 X126.59 Y132.032 E39.35628
G1 X126.023 Y132.305 E39.38767
G1 X123.029 Y133.596 E39.55034
G1 X122.576 Y133.774 E39.57462
G1 X121.039 Y134.32 E39.656
G1 X120.593 Y134.463 E39.67936
G1 X117.458 Y135.358 E39.84202
G1 X116.999 Y135.473 E39.86563
G1 X115.407 Y135.819 E39.94691
G1 X114.94 Y135.905 E39.9706
G1 X111.716 Y136.392 E40.13327
G1 X111.085 Y136.46 E40.16493
G1 X107.83 Y136.669 E40.32766
G1 X107.197 Y136.682 E40.35924
G1 X103.94 Y136.612 E40.52177
G1 X103.309 Y136.572 E40.55332
G1 X100.067 Y136.224 E40.71599
G1 X99.441 Y136.129 E40.74758
G1 X96.24 Y135.505 E40.91028
G1 X95.625 Y135.358 E40.94183
G1 X92.492 Y134.464 E41.10438
G1 X92.036 Y134.318 E41.12826
G1 X90.5 Y133.77 E41.20963
G1 X90.06 Y133.596 E41.23323
G1 X87.065 Y132.306 E41.39592
G1 X86.496 Y132.032 E41.42743
G1 X83.623 Y130.492 E41.59006
G1 X83.078 Y130.169 E41.62167
G1 X80.347 Y128.389 E41.7843
G1 X79.83 Y128.019 E41.81602
G1 X77.262 Y126.011 E41.97865
G1 X76.783 Y125.603 E42.01005
G1 X74.395 Y123.384 E42.17268
G1 X73.948 Y122.932 E42.20439
G1 X71.759 Y120.516 E42.36705
G1 X71.355 Y120.03 E42.39858
G1 X69.538 Y117.643 E42.54824
G1 X48.122 Y117.643 E43.61669
G1 X47.354 Y117.603 E43.65506
G1 X46.594 Y117.484 E43.69343
G1 X45.851 Y117.286 E43.7318
G1 X45.132 Y117.012 E43.77018
G1 X44.446 Y116.665 E43.80854
G1 X43.799 Y116.249 E43.84691
G1 X43.199 Y115.768 E43.88528
G1 X42.652 Y115.227 E43.92366
G1 X42.164 Y114.632 E43.96205
G1 X41.741 Y113.99 E44.00041
G1 X41.386 Y113.307 E44.03881
G1 X41.105 Y112.592 E44.07714
G1 X40.899 Y111.85 E44.11556
G1 X40.771 Y111.092 E44.15391
G1 X40.722 Y110.243 E44.19634
G1 X40.722 Y103.893 E44.51314
G1 X40.762 Y103.125 E44.55151
G1 X40.881 Y102.365 E44.58989
G1 X41.079 Y101.622 E44.62825
G1 X41.353 Y100.903 E44.66664
G1 X41.7 Y100.217 E44.70499
G1 X42.116 Y99.57 E44.74337
G1 X42.597 Y98.97 E44.78173
G1 X43.138 Y98.423 E44.82012
G1 X43.733 Y97.935 E44.85851
G1 X44.375 Y97.512 E44.89686
G1 X45.058 Y97.157 E44.93527
G1 X45.773 Y96.876 E44.97359
G1 X46.515 Y96.67 E45.01201
G1 X47.273 Y96.542 E45.05037
G1 X48.122 Y96.493 E45.09279
G1 X59.582 Y96.493 E45.66453
G1 X59.582 Y86.147 E46.1807
G1 X48.122 Y86.147 E46.75244
G1 X47.354 Y86.107 E46.79081
G1 X46.594 Y85.988 E46.82919
G1 X45.851 Y85.79 E46.86755
G1 X45.132 Y85.516 E46.90594
G1 X44.446 Y85.169 E46.94429
G1 X43.799 Y84.753 E46.98267
G1 X43.199 Y84.272 E47.02103
G1 X42.652 Y83.731 E47.05941
G1 X42.164 Y83.136 E47.09781
G1 X41.741 Y82.494 E47.13616
G1 X41.386 Y81.811 E47.17457
G1 X41.105 Y81.096 E47.21289
G1 X40.899 Y80.354 E47.25131
G1 X40.771 Y79.596 E47.28966
G1 X40.722 Y78.747 E47.33209
G1 X40.722 Y72.143 E47.66157
G1 X40.762 Y71.375 E47.69993
G1 X40.881 Y70.615 E47.73831
G1 X41.079 Y69.872 E47.77667
G1 X41.353 Y69.153 E47.81506
G1 X41.7 Y68.467 E47.85342
G1 X42.116 Y67.82 E47.89179
G1 X42.597 Y67.22 E47.93016
G1 X43.138 Y66.673 E47.96854
G1 X43.733 Y66.185 E48.00693
G1 X44.375 Y65.762 E48.04529
G0 F3600 X44.12 Y66.4
G1 F1800 X44.756 Y66.005 E48.08264
G1 X45.43 Y65.681 E48.11995
G1 X46.135 Y65.431 E48.15727
G1 X46.863 Y65.257 E48.19461
G1 X47.605 Y65.162 E48.23193
G1 X48.122 Y65.143 E48.25774
G1 X69.736 Y65.143 E49.33607
G1 X71.673 Y62.599 E49.49559
G1 X72.054 Y62.14 E49.52535
G1 X74.243 Y59.723 E49.68804
G1 X74.667 Y59.293 E49.71817
G1 X77.056 Y57.074 E49.88084
G1 X77.51 Y56.687 E49.9106
G1 X80.077 Y54.681 E50.07314
G1 X80.563 Y54.334 E50.10293
G1 X83.295 Y52.552 E50.26566
G1 X83.811 Y52.246 E50.29559
G1 X86.683 Y50.706 E50.45817
G1 X87.222 Y50.446 E50.48803
G1 X90.217 Y49.156 E50.65072
G1 X90.638 Y48.991 E50.67328
G1 X92.174 Y48.444 E50.75463
G1 X92.6 Y48.307 E50.77695
G1 X95.735 Y47.412 E50.93961
G1 X96.17 Y47.303 E50.96198
G1 X97.762 Y46.957 E51.04326
G1 X98.204 Y46.875 E51.06569
G1 X101.429 Y46.388 E51.22841
G1 X102.025 Y46.324 E51.25831
G1 X105.279 Y46.115 E51.42099
G1 X105.878 Y46.103 E51.45088
G1 X109.136 Y46.173 E51.61346
G1 X109.733 Y46.211 E51.6433
G1 X112.975 Y46.559 E51.80598
G1 X113.568 Y46.648 E51.83589
G1 X116.767 Y47.272 E51.9985
G1 X117.349 Y47.412 E52.02836
G1 X120.484 Y48.307 E52.19102
G1 X120.912 Y48.444 E52.21344
G1 X122.447 Y48.991 E52.29474
G1 X122.727 Y49.098 E52.30969
G1 X124.239 Y49.711 E52.39109
G1 X124.65 Y49.893 E52.41352
G1 X127.586 Y51.309 E52.57614
G1 X128.113 Y51.592 E52.60598
G1 X130.918 Y53.254 E52.76864
G1 X131.421 Y53.582 E52.7986
