;FLAVOR:Marlin
;TIME:5200
;Filament used: 5.33754m
;Layer height: 0.2
;Generated with Cura_SteamEngine 3.4.1
M190 S60
M104 S200
M109 S200
M82 ;absolute extrusion mode
; Start Gcode
G21 ;metric values
G90 ;absolute positioning
M82 ;set extruder to absolute mode
M107 ;start with the fan off
G28 X0 Y0 ;move X/Y to min endstops
G28 Z0 ;move Z to min endstops
G1 Z15.0 F9000 ;move the platform down 15mm
G92 E0 ;zero the extruded length
G1 F200 E3 ;extrude 3mm of feed stock
G92 E0 ;zero the extruded length again
G1 F9000
G92 E0
G1 F1500 E-6.5
;LAYER_COUNT:64
;LAYER:0
M107
G0 F3600 X13.787 Y26.263 Z0.3
;TYPE:SKIRT
G1 F1500 E0
G1 F1800 X14.512 Y25.951 E0.03938
G1 X15.265 Y25.714 E0.07876
G1 X16.039 Y25.555 E0.11818
G1 X16.824 Y25.474 E0.15755
G1 X17.226 Y25.464 E0.17762
G1 X38.443 Y25.464 E1.23614
G1 X40.141 Y23.235 E1.37593
G1 X40.565 Y22.725 E1.40902
G1 X42.754 Y20.308 E1.57171
G1 X43.227 Y19.829 E1.6053
G1 X45.616 Y17.61 E1.76797
G1 X46.12 Y17.18 E1.80102
G1 X48.687 Y15.173 E1.96358
G1 X49.231 Y14.784 E1.99695
G1 X51.963 Y13.003 E2.15965
G1 X52.535 Y12.664 E2.19283
G1 X55.407 Y11.123 E2.35543
G1 X56.009 Y10.832 E2.38879
G1 X59.004 Y9.542 E2.55148
G1 X59.479 Y9.356 E2.57693
G1 X61.016 Y8.81 E2.65831
G1 X61.485 Y8.66 E2.68288
G1 X64.619 Y7.765 E2.84548
G1 X65.104 Y7.643 E2.87043
G1 X66.696 Y7.297 E2.95171
G1 X67.188 Y7.206 E2.97667
G1 X70.413 Y6.719 E3.13939
G1 X71.078 Y6.648 E3.17276
G1 X74.332 Y6.439 E3.33544
G1 X75 Y6.425 E3.36877
G1 X78.258 Y6.495 E3.53135
G1 X78.922 Y6.538 E3.56455
G1 X82.164 Y6.886 E3.72722
G1 X82.825 Y6.985 E3.76057
G1 X86.024 Y7.609 E3.92317
G1 X86.672 Y7.765 E3.95643
G1 X89.807 Y8.66 E4.11908
G1 X90.284 Y8.813 E4.14407
G1 X91.819 Y9.36 E4.22537
G1 X92.287 Y9.543 E4.25044
G1 X95.282 Y10.833 E4.41313
G1 X95.882 Y11.123 E4.44638
G1 X98.754 Y12.663 E4.60896
G1 X99.325 Y13.001 E4.64207
G1 X102.056 Y14.78 E4.80468
G1 X102.601 Y15.17 E4.83811
G1 X105.171 Y17.178 E5.00082
G1 X105.681 Y17.612 E5.03423
G1 X107.141 Y18.97 E5.13371
G1 X107.511 Y18.895 E5.15255
G1 X108.666 Y18.809 E5.21033
G1 X139.146 Y18.809 E6.73098
G1 X139.935 Y18.849 E6.7704
G1 X140.715 Y18.968 E6.80976
G1 X141.48 Y19.166 E6.84919
G1 X142.22 Y19.44 E6.88855
G1 X142.929 Y19.788 E6.92796
G1 X143.6 Y20.206 E6.9674
G1 X144.224 Y20.689 E7.00677
G1 X144.797 Y21.232 E7.04615
G1 X145.312 Y21.831 E7.08556
G1 X145.763 Y22.479 E7.12495
G1 X146.147 Y23.17 E7.16439
G1 X146.459 Y23.895 E7.20377
G1 X146.696 Y24.648 E7.24315
G1 X146.855 Y25.422 E7.28257
G1 X146.936 Y26.207 E7.32194
G1 X146.946 Y26.609 E7.34201
G1 X146.946 Y34.229 E7.72217
G1 X146.906 Y35.018 E7.76158
G1 X146.787 Y35.798 E7.80095
G1 X146.589 Y36.563 E7.84037
G1 X146.315 Y37.303 E7.87974
G1 X145.967 Y38.012 E7.91914
G1 X145.549 Y38.683 E7.95858
G1 X145.066 Y39.307 E7.99795
G1 X144.523 Y39.88 E8.03733
G1 X143.924 Y40.395 E8.07675
G1 X143.276 Y40.846 E8.11613
G1 X142.585 Y41.23 E8.15557
G1 X141.86 Y41.542 E8.19495
G1 X141.107 Y41.779 E8.23434
G1 X140.333 Y41.938 E8.27376
G1 X139.548 Y42.019 E8.31313
G1 X139.146 Y42.029 E8.33319
G1 X121.546 Y42.029 E9.21126
G1 X121.546 Y69.101 E10.56189
G1 X139.146 Y69.101 E11.43995
G1 X139.935 Y69.141 E11.47937
G1 X140.715 Y69.26 E11.51873
G1 X141.48 Y69.458 E11.55816
G1 X142.22 Y69.732 E11.59752
G1 X142.929 Y70.08 E11.63693
G1 X143.6 Y70.498 E11.67637
G1 X144.224 Y70.981 E11.71574
G1 X144.797 Y71.524 E11.75512
G1 X145.312 Y72.123 E11.79453
G1 X145.763 Y72.771 E11.83392
G1 X146.147 Y73.462 E11.87336
G1 X146.459 Y74.187 E11.91274
G1 X146.696 Y74.94 E11.95212
G1 X146.855 Y75.714 E11.99154
G1 X146.936 Y76.499 E12.03091
G1 X146.946 Y76.901 E12.05098
G1 X146.946 Y84.521 E12.43114
G1 X146.906 Y85.31 E12.47055
G1 X146.787 Y86.09 E12.50992
G1 X146.589 Y86.855 E12.54934
G1 X146.315 Y87.595 E12.58871
G1 X145.967 Y88.304 E12.62811
G1 X145.549 Y88.975 E12.66755
G1 X145.066 Y89.599 E12.70692
G1 X144.523 Y90.172 E12.7463
G1 X143.924 Y90.687 E12.78572
G1 X143.276 Y91.138 E12.8251
G1 X142.585 Y91.522 E12.86454
G1 X141.86 Y91.834 E12.90392
G1 X141.107 Y92.071 E12.94331
G1 X140.333 Y92.23 E12.98273
G1 X139.548 Y92.311 E13.0221
G1 X139.146 Y92.321 E13.04216
G1 X108.666 Y92.321 E14.56281
G1 X107.877 Y92.281 E14.60223
G1 X107.097 Y92.162 E14.64159
G1 X106.332 Y91.964 E14.68102
G1 X105.592 Y91.69 E14.72038
G1 X104.883 Y91.342 E14.75979
G1 X104.212 Y90.924 E14.79923
G1 X103.588 Y90.441 E14.8386
G1 X103.015 Y89.898 E14.87798
G1 X102.623 Y89.442 E14.90798
G1 X102.603 Y89.457 E14.90923
G1 X102.062 Y89.843 E14.94238
G1 X99.33 Y91.625 E15.10512
G1 X98.755 Y91.966 E15.13847
G1 X95.883 Y93.506 E15.30105
G1 X95.283 Y93.795 E15.33428
G1 X92.289 Y95.085 E15.49692
G1 X91.818 Y95.271 E15.52219
G1 X90.281 Y95.818 E15.60358
G1 X89.807 Y95.969 E15.6284
G1 X86.672 Y96.864 E15.79105
G1 X86.188 Y96.986 E15.81596
G1 X84.596 Y97.332 E15.89724
G1 X84.102 Y97.423 E15.9223
G1 X80.878 Y97.909 E16.08496
G1 X80.217 Y97.98 E16.11813
G1 X76.963 Y98.19 E16.28081
G1 X76.293 Y98.204 E16.31424
G1 X73.035 Y98.134 E16.47682
G1 X72.371 Y98.091 E16.51002
G1 X69.129 Y97.743 E16.67269
G1 X68.469 Y97.644 E16.70599
G1 X65.268 Y97.02 E16.86869
G1 X64.619 Y96.864 E16.90199
G1 X61.487 Y95.97 E17.06449
G1 X61.004 Y95.815 E17.0898
G1 X59.467 Y95.266 E17.17122
G1 X59.007 Y95.086 E17.19587
G1 X56.012 Y93.797 E17.35854
G1 X55.411 Y93.507 E17.39183
G1 X52.538 Y91.967 E17.55446
G1 X51.962 Y91.625 E17.58788
G1 X49.231 Y89.844 E17.75054
G1 X48.689 Y89.457 E17.78377
G1 X46.121 Y87.45 E17.94637
G1 X45.613 Y87.017 E17.97967
G1 X43.225 Y84.797 E18.14234
G1 X42.757 Y84.322 E18.17561
G1 X40.568 Y81.907 E18.33822
G1 X40.141 Y81.394 E18.37152
G1 X38.443 Y79.164 E18.51136
G1 X17.226 Y79.164 E19.56988
G1 X16.437 Y79.124 E19.60929
G1 X15.657 Y79.005 E19.64866
G1 X14.892 Y78.807 E19.68808
G1 X14.152 Y78.533 E19.72745
G1 X13.443 Y78.185 E19.76685
G1 X12.772 Y77.767 E19.80629
G1 X12.148 Y77.284 E19.84566
G1 X11.575 Y76.741 E19.88505
G1 X11.06 Y76.142 E19.92446
G1 X10.609 Y75.494 E19.96384
G1 X10.225 Y74.803 E20.00328
G1 X9.913 Y74.078 E20.04266
G1 X9.676 Y73.325 E20.08205
G1 X9.517 Y72.551 E20.12147
G1 X9.436 Y71.766 E20.16084
G1 X9.426 Y71.364 E20.1809
G1 X9.426 Y65.014 E20.4977
G1 X9.466 Y64.225 E20.53712
G1 X9.585 Y63.445 E20.57648
G1 X9.783 Y62.68 E20.61591
G1 X10.057 Y61.94 E20.65527
G1 X10.405 Y61.231 E20.69468
G1 X10.823 Y60.56 E20.73412
G1 X11.306 Y59.936 E20.77349
G1 X11.849 Y59.363 E20.81287
G1 X12.448 Y58.848 E20.85228
G1 X13.096 Y58.397 E20.89167
G1 X13.787 Y58.013 E20.93111
G1 X14.512 Y57.701 E20.97049
G1 X15.265 Y57.464 E21.00987
G1 X16.039 Y57.305 E21.04929
G1 X16.824 Y57.224 E21.08866
G1 X17.226 Y57.214 E21.10873
G1 X28.286 Y57.214 E21.66051
G1 X28.286 Y47.668 E22.13676
G1 X17.226 Y47.668 E22.68855
G1 X16.437 Y47.628 E22.72796
G1 X15.657 Y47.509 E22.76733
G1 X14.892 Y47.311 E22.80675
G1 X14.152 Y47.037 E22.84612
G1 X13.443 Y46.689 E22.88552
G1 X12.772 Y46.271 E22.92496
G1 X12.148 Y45.788 E22.96433
G1 X11.575 Y45.245 E23.00372
G1 X11.06 Y44.646 E23.04313
G1 X10.609 Y43.998 E23.08251
G1 X10.225 Y43.307 E23.12195
G1 X9.913 Y42.582 E23.16133
G1 X9.676 Y41.829 E23.20072
G1 X9.517 Y41.055 E23.24014
G1 X9.436 Y40.27 E23.27951
G1 X9.426 Y39.868 E23.29957
G1 X9.426 Y33.264 E23.62905
G1 X9.466 Y32.475 E23.66846
G1 X9.585 Y31.695 E23.70782
G1 X9.783 Y30.93 E23.74725
G1 X10.057 Y30.19 E23.78662
G1 X10.405 Y29.481 E23.82602
G1 X10.823 Y28.81 E23.86546
G1 X11.306 Y28.186 E23.90483
G1 X11.849 Y27.613 E23.94421
G1 X12.448 Y27.098 E23.98362
G1 X13.096 Y26.647 E24.02301
G1 X13.787 Y26.263 E24.06245
G0 F3600 X14.162 Y26.528
G1 F1800 X14.877 Y26.247 E24.10078
G1 X15.619 Y26.041 E24.1392
G1 X16.377 Y25.913 E24.17755
G1 X17.226 Y25.864 E24.21998
G1 X38.641 Y25.864 E25.28838
G1 X40.459 Y23.477 E25.43807
G1 X40.861 Y22.994 E25.46942
G1 X43.05 Y20.577 E25.63211
G1 X43.499 Y20.122 E25.664
G1 X45.888 Y17.903 E25.82667
G1 X46.366 Y17.495 E25.85803
G1 X48.933 Y15.488 E26.02059
G1 X49.45 Y15.119 E26.05228
G1 X52.182 Y13.338 E26.21498
G1 X52.724 Y13.016 E26.24644
G1 X55.596 Y11.475 E26.40904
G1 X56.168 Y11.2 E26.44071
G1 X59.163 Y9.91 E26.6034
G1 X59.613 Y9.733 E26.62752
G1 X61.15 Y9.187 E26.7089
G1 X61.595 Y9.044 E26.73222
G1 X64.729 Y8.149 E26.89483
G1 X65.189 Y8.034 E26.91848
G1 X66.781 Y7.688 E26.99976
G1 X67.248 Y7.602 E27.02345
G1 X70.473 Y7.115 E27.18617
G1 X71.104 Y7.047 E27.21784
G1 X74.358 Y6.838 E27.38051
G1 X74.991 Y6.825 E27.4121
G1 X78.249 Y6.895 E27.57468
G1 X78.88 Y6.935 E27.60622
G1 X82.122 Y7.283 E27.7689
G1 X82.749 Y7.378 E27.80053
G1 X85.948 Y8.002 E27.96314
G1 X86.562 Y8.149 E27.99464
G1 X89.697 Y9.044 E28.15729
G1 X90.15 Y9.189 E28.18102
G1 X91.685 Y9.736 E28.26232
G1 X92.128 Y9.911 E28.28609
G1 X95.123 Y11.201 E28.44878
G1 X95.693 Y11.475 E28.48033
G1 X98.565 Y13.015 E28.64291
G1 X99.107 Y13.337 E28.67437
G1 X101.838 Y15.116 E28.83698
G1 X102.355 Y15.485 E28.86866
G1 X104.925 Y17.493 E29.03138
G1 X105.409 Y17.905 E29.06309
G1 X107.016 Y19.399 E29.17256
G1 X107.089 Y19.379 E29.17633
G1 X107.848 Y19.254 E29.21471
G1 X108.666 Y19.209 E29.25558
G1 X139.146 Y19.209 E30.77624
G1 X139.914 Y19.249 E30.8146
G1 X140.674 Y19.368 E30.85298
G1 X141.417 Y19.566 E30.89134
G1 X142.136 Y19.84 E30.92973
G1 X142.822 Y20.187 E30.96809
G1 X143.469 Y20.603 E31.00646
G1 X144.069 Y21.084 E31.04483
G1 X144.616 Y21.625 E31.08321
G1 X145.104 Y22.22 E31.1216
G1 X145.527 Y22.862 E31.15996
G1 X145.882 Y23.545 E31.19836
G1 X146.163 Y24.26 E31.23669
G1 X146.369 Y25.002 E31.27511
G1 X146.497 Y25.76 E31.31346
G1 X146.546 Y26.609 E31.35589
G1 X146.546 Y34.229 E31.73605
G1 X146.506 Y34.997 E31.77442
G1 X146.387 Y35.757 E31.8128
G1 X146.189 Y36.5 E31.85116
G1 X145.915 Y37.219 E31.88955
G1 X145.568 Y37.905 E31.9279
G1 X145.152 Y38.552 E31.96627
G1 X144.671 Y39.152 E32.00464
G1 X144.13 Y39.699 E32.04302
G1 X143.535 Y40.187 E32.08141
G1 X142.893 Y40.61 E32.11977
G1 X142.21 Y40.965 E32.15817
G1 X141.495 Y41.246 E32.1965
G1 X140.753 Y41.452 E32.23492
G1 X139.995 Y41.58 E32.27327
G1 X139.146 Y41.629 E32.3157
G1 X121.146 Y41.629 E33.21372
G1 X121.146 Y69.501 E34.60426
G1 X139.146 Y69.501 E35.50229
G1 X139.914 Y69.541 E35.54065
G1 X140.674 Y69.66 E35.57903
G1 X141.417 Y69.858 E35.6174
G1 X142.136 Y70.132 E35.65578
G1 X142.822 Y70.479 E35.69414
G1 X143.469 Y70.895 E35.73251
G1 X144.069 Y71.376 E35.77088
G1 X144.616 Y71.917 E35.80926
G1 X145.104 Y72.512 E35.84765
G1 X145.527 Y73.154 E35.88601
G1 X145.882 Y73.837 E35.92441
G1 X146.163 Y74.552 E35.96274
G1 X146.369 Y75.294 E36.00116
G1 X146.497 Y76.052 E36.03951
G1 X146.546 Y76.901 E36.08194
G1 X146.546 Y84.521 E36.4621
G1 X146.506 Y85.289 E36.50047
G1 X146.387 Y86.049 E36.53885
G1 X146.189 Y86.792 E36.57721
G1 X145.915 Y87.511 E36.6156
G1 X145.568 Y88.197 E36.65395
G1 X145.152 Y88.844 E36.69233
G1 X144.671 Y89.444 E36.73069
G1 X144.13 Y89.991 E36.76907
G1 X143.535 Y90.479 E36.80747
G1 X142.893 Y90.902 E36.84582
G1 X142.21 Y91.257 E36.88423
G1 X141.495 Y91.538 E36.92255
G1 X140.753 Y91.744 E36.96097
G1 X139.995 Y91.872 E36.99932
G1 X139.146 Y91.921 E37.04175
G1 X108.666 Y91.921 E38.5624
G1 X107.898 Y91.881 E38.60077
G1 X107.138 Y91.762 E38.63915
G1 X106.395 Y91.564 E38.67751
G1 X105.676 Y91.29 E38.7159
G1 X104.99 Y90.943 E38.75425
G1 X104.343 Y90.527 E38.79263
G1 X103.743 Y90.046 E38.831
G1 X103.196 Y89.505 E38.86938
G1 X102.708 Y88.91 E38.90777
G1 X102.689 Y88.882 E38.90946
G1 X102.356 Y89.142 E38.93054
G1 X101.844 Y89.508 E38.96194
G1 X99.112 Y91.29 E39.12467
G1 X98.566 Y91.614 E39.15634
G1 X95.694 Y93.154 E39.31893
G1 X95.125 Y93.428 E39.35043
G1 X92.131 Y94.718 E39.51308
G1 X91.684 Y94.894 E39.53705
G1 X90.147 Y95.441 E39.61844
G1 X89.697 Y95.585 E39.64201
G1 X86.562 Y96.48 E39.80467
G1 X86.103 Y96.595 E39.82827
G1 X84.511 Y96.941 E39.90955
G1 X84.042 Y97.027 E39.93334
G1 X80.818 Y97.513 E40.096
G1 X80.192 Y97.581 E40.12742
G1 X76.938 Y97.791 E40.2901
G1 X76.302 Y97.804 E40.32184
G1 X73.044 Y97.734 E40.48442
G1 X72.413 Y97.694 E40.51596
G1 X69.171 Y97.346 E40.67863
G1 X68.545 Y97.251 E40.71022
G1 X65.344 Y96.627 E40.87293
G1 X64.729 Y96.48 E40.90447
G1 X61.597 Y95.586 E41.06697
G1 X61.139 Y95.439 E41.09097
G1 X59.602 Y94.89 E41.1724
G1 X59.166 Y94.718 E41.19578
G1 X56.171 Y93.429 E41.35845
G1 X55.6 Y93.154 E41.39007
G1 X52.727 Y91.614 E41.5527
G1 X52.181 Y91.29 E41.58437
G1 X49.45 Y89.509 E41.74704
G1 X48.935 Y89.142 E41.77859
G1 X46.367 Y87.135 E41.94119
G1 X45.886 Y86.724 E41.97275
G1 X43.498 Y84.504 E42.13542
G1 X43.053 Y84.054 E42.167
G1 X40.864 Y81.639 E42.32961
G1 X40.459 Y81.152 E42.36121
G1 X38.641 Y78.764 E42.51094
G1 X17.226 Y78.764 E43.57934
G1 X16.458 Y78.724 E43.61771
G1 X15.698 Y78.605 E43.65609
G1 X14.955 Y78.407 E43.69445
G1 X14.236 Y78.133 E43.73284
G1 X13.55 Y77.786 E43.77119
G1 X12.903 Y77.37 E43.80957
G1 X12.303 Y76.889 E43.84793
G1 X11.756 Y76.348 E43.88632
G1 X11.268 Y75.753 E43.92471
G1 X10.845 Y75.111 E43.96307
G1 X10.49 Y74.428 E44.00147
G1 X10.209 Y73.713 E44.0398
G1 X10.003 Y72.971 E44.07821
G1 X9.875 Y72.213 E44.11657
G1 X9.826 Y71.364 E44.15899
G1 X9.826 Y65.014 E44.4758
G1 X9.866 Y64.246 E44.51416
G1 X9.985 Y63.486 E44.55254
G1 X10.183 Y62.743 E44.59091
G1 X10.457 Y62.024 E44.62929
G1 X10.804 Y61.338 E44.66765
G1 X11.22 Y60.691 E44.70602
G1 X11.701 Y60.091 E44.74439
G1 X12.242 Y59.544 E44.78277
G1 X12.837 Y59.056 E44.82116
G1 X13.479 Y58.633 E44.85952
G1 X14.162 Y58.278 E44.89792
G1 X14.877 Y57.997 E44.93625
G1 X15.619 Y57.791 E44.97467
G1 X16.377 Y57.663 E45.01302
G1 X17.226 Y57.614 E45.05545
G1 X28.686 Y57.614 E45.62719
G1 X28.686 Y47.268 E46.14335
G1 X17.226 Y47.268 E46.71509
G1 X16.458 Y47.228 E46.75346
G1 X15.698 Y47.109 E46.79184
G1 X14.955 Y46.911 E46.8302
G1 X14.236 Y46.637 E46.86859
G1 X13.55 Y46.29 E46.90694
G1 X12.903 Y45.874 E46.94532
G1 X12.303 Y45.393 E46.98369
G1 X11.756 Y44.852 E47.02207
G1 X11.268 Y44.257 E47.06046
G1 X10.845 Y43.615 E47.09882
G1 X10.49 Y42.932 E47.13722
G1 X10.209 Y42.217 E47.17555
G1 X10.003 Y41.475 E47.21397
G1 X9.875 Y40.717 E47.25232
G1 X9.826 Y39.868 E47.29475
G1 X9.826 Y33.264 E47.62422
G1 X9.866 Y32.496 E47.66259
G1 X9.985 Y31.736 E47.70097
G1 X10.183 Y30.993 E47.73933
G1 X10.457 Y30.274 E47.77772
G1 X10.804 Y29.588 E47.81607
G1 X11.22 Y28.941 E47.85445
G1 X11.701 Y28.341 E47.89281
G1 X12.242 Y27.794 E47.93119
G1 X12.837 Y27.306 E47.96959
G1 X13.479 Y26.883 E48.00794
G1 X14.162 Y26.528 E48.04635
G0 F3600 X13.86 Y27.126
G1 F1800 X14.534 Y26.802 E48.08365
G1 X15.239 Y26.552 E48.12097
G1 X15.967 Y26.378 E48.15832
G1 X16.709 Y26.283 E48.19564
G1 X17.226 Y26.264 E48.22145
G1 X38.839 Y26.264 E49.29972
G1 X40.777 Y23.72 E49.45928
G1 X41.158 Y23.262 E49.489
G1 X43.347 Y20.845 E49.65169
G1 X43.771 Y20.415 E49.68182
G1 X46.16 Y18.196 E49.84449
G1 X46.612 Y17.81 E49.87414
G1 X49.179 Y15.803 E50.03671
G1 X49.668 Y15.454 E50.06668
G1 X52.4 Y13.673 E50.22938
G1 X52.913 Y13.369 E50.25913
G1 X55.785 Y11.828 E50.42174
G1 X56.326 Y11.567 E50.45171
G1 X59.321 Y10.277 E50.6144
G1 X59.747 Y10.11 E50.63723
G1 X61.284 Y9.564 E50.7186
G1 X61.705 Y9.429 E50.74066
G1 X64.839 Y8.534 E50.90327
G1 X65.274 Y8.425 E50.92564
G1 X66.866 Y8.079 E51.00692
G1 X67.308 Y7.997 E51.02935
G1 X70.533 Y7.51 E51.19207
G1 X71.129 Y7.446 E51.22197
G1 X74.383 Y7.237 E51.38465
G1 X74.982 Y7.225 E51.41454
G1 X78.24 Y7.295 E51.57712
G1 X78.837 Y7.333 E51.60697
G1 X82.079 Y7.681 E51.76964
G1 X82.672 Y7.77 E51.79955
G1 X85.871 Y8.394 E51.96216
G1 X86.453 Y8.534 E51.99203
G1 X89.588 Y9.429 E52.15468
G1 X90.016 Y9.566 E52.1771
G1 X91.551 Y10.113 E52.2584
G1 X91.97 Y10.278 E52.28087
G1 X94.965 Y11.568 E52.44356
G1 X95.504 Y11.828 E52.47341
G1 X98.376 Y13.368 E52.636
G1 X98.889 Y13.672 E52.66575
G1 X101.62 Y15.451 E52.82836
G1 X102.109 Y15.8 E52.85833
G1 X104.679 Y17.808 E53.02104
G1 X105.136 Y18.198 E53.05102
G1 X106.904 Y19.843 E53.1715
G1 X107.436 Y19.718 E53.19876
G1 X108.178 Y19.626 E53.23606
G1 X108.666 Y19.609 E53.26042
G1 X139.146 Y19.609 E54.78108
G1 X139.893 Y19.649 E54.8184
G1 X140.631 Y19.768 E54.85569
G1 X141.353 Y19.966 E54.89304
G1 X142.049 Y20.239 E54.93034
G1 X142.712 Y20.586 E54.96768
G1 X143.335 Y21.001 E55.00502
G1 X143.909 Y21.48 E55.04232
G1 X144.43 Y22.017 E55.07965
G1 X144.889 Y22.607 E55.11694
G1 X145.284 Y23.243 E55.1543
G1 X145.608 Y23.917 E55.1916
