;FLAVOR:Marlin
;TIME:5063
;Filament used: 4.93175m
;Layer height: 0.2
;Generated with Cura_SteamEngine 3.4.1
M190 S60
M104 S200
M109 S200
M82 ;absolute extrusion mode
; Start Gcode
G21 ;metric values
G90 ;absolute positioning
M82 ;set extruder to absolute mode
M107 ;start with the fan off
G28 X0 Y0 ;move X/Y to min endstops
G28 Z0 ;move Z to min endstops
G1 Z15.0 F9000 ;move the platform down 15mm
G92 E0 ;zero the extruded length
G1 F200 E3 ;extrude 3mm of feed stock
G92 E0 ;zero the extruded length again
G1 F9000
G92 E0
G1 F1500 E-6.5
;LAYER_COUNT:267
;LAYER:0
M107
G0 F3600 X32.122 Y27.607 Z0.3
;TYPE:SKIRT
G1 F1500 E0
G1 F1800 X33.012 Y26.546 E0.06909
G1 X33.592 Y25.926 E0.11145
G1 X35.091 Y24.49 E0.21501
G1 X35.877 Y23.831 E0.26618
G1 X37.553 Y22.603 E0.36984
G1 X38.409 Y22.058 E0.42047
G1 X40.23 Y21.058 E0.52412
G1 X41.001 Y20.688 E0.56678
G1 X42.279 Y20.159 E0.63579
G1 X42.921 Y19.926 E0.66986
G1 X44.243 Y19.51 E0.73901
G1 X45.059 Y19.301 E0.78103
G1 X47.095 Y18.895 E0.88461
G1 X47.944 Y18.773 E0.9274
G1 X49.324 Y18.653 E0.99651
G1 X50 Y18.624 E1.03026
G1 X51.385 Y18.624 E1.09936
G1 X52.061 Y18.653 E1.13312
G1 X53.44 Y18.773 E1.20218
G1 X54.121 Y18.863 E1.23645
G1 X55.485 Y19.104 E1.30555
G1 X56.144 Y19.25 E1.33923
G1 X57.482 Y19.608 E1.40833
G1 X58.136 Y19.814 E1.44254
G1 X59.437 Y20.288 E1.51162
G1 X60.06 Y20.546 E1.54526
G1 X61.316 Y21.131 E1.61438
G1 X61.926 Y21.449 E1.6487
G1 X63.125 Y22.142 E1.71779
G1 X63.696 Y22.506 E1.75158
G1 X64.83 Y23.3 E1.82064
G1 X65.369 Y23.713 E1.85452
G1 X66.43 Y24.603 E1.92361
G1 X67.05 Y25.183 E1.96597
G1 X68.486 Y26.682 E2.06953
G1 X69.145 Y27.468 E2.1207
G1 X70.373 Y29.144 E2.22436
G1 X70.919 Y30.001 E2.27506
G1 X71.919 Y31.823 E2.37875
G1 X72.287 Y32.591 E2.42124
G1 X72.816 Y33.868 E2.4902
G1 X73.05 Y34.51 E2.52429
G1 X73.466 Y35.831 E2.59338
G1 X73.676 Y36.65 E2.63557
G1 X74.082 Y38.688 E2.73924
G1 X74.203 Y39.536 E2.78197
G1 X74.323 Y40.915 E2.85103
G1 X74.352 Y41.591 E2.88479
G1 X74.352 Y42.976 E2.95389
G1 X74.323 Y43.652 E2.98765
G1 X74.203 Y45.032 E3.05675
G1 X74.113 Y45.713 E3.09102
G1 X73.872 Y47.077 E3.16013
G1 X73.726 Y47.737 E3.19385
G1 X73.368 Y49.074 E3.2629
G1 X73.162 Y49.725 E3.29697
G1 X72.688 Y51.027 E3.3661
G1 X72.429 Y51.654 E3.39994
G1 X71.844 Y52.909 E3.46902
G1 X71.527 Y53.517 E3.50323
G1 X70.834 Y54.716 E3.57232
G1 X70.472 Y55.284 E3.60593
G1 X69.678 Y56.419 E3.67503
G1 X69.263 Y56.961 E3.70909
G1 X68.373 Y58.022 E3.77818
G1 X67.793 Y58.642 E3.82054
G1 X66.294 Y60.078 E3.9241
G1 X65.506 Y60.739 E3.97541
G1 X63.83 Y61.966 E4.07904
G1 X63.125 Y62.425 E4.12101
G1 X61.926 Y63.118 E4.1901
G1 X61.316 Y63.436 E4.22442
G1 X60.06 Y64.021 E4.29355
G1 X59.437 Y64.279 E4.32719
G1 X58.136 Y64.753 E4.39627
G1 X57.319 Y65.001 E4.43887
G1 X55.303 Y65.494 E4.54241
G1 X54.468 Y65.65 E4.58479
G1 X53.093 Y65.831 E4.65398
G1 X52.419 Y65.89 E4.68774
G1 X51.036 Y65.951 E4.7568
G1 X50.348 Y65.951 E4.79113
G1 X48.966 Y65.89 E4.86014
G1 X48.291 Y65.831 E4.89395
G1 X46.918 Y65.65 E4.96304
G1 X46.25 Y65.532 E4.99688
G1 X44.896 Y65.232 E5.06607
G1 X44.237 Y65.056 E5.1001
G1 X42.918 Y64.64 E5.1691
G1 X42.279 Y64.407 E5.20303
G1 X40.997 Y63.876 E5.27226
G1 X40.386 Y63.592 E5.30588
G1 X39.158 Y62.954 E5.37492
G1 X38.562 Y62.61 E5.40925
G1 X37.396 Y61.867 E5.47823
G1 X36.843 Y61.479 E5.51193
G1 X35.742 Y60.635 E5.58114
G1 X35.213 Y60.192 E5.61557
G1 X34.192 Y59.255 E5.6847
G1 X33.601 Y58.651 E5.72686
G1 X32.233 Y57.091 E5.83038
G1 X31.707 Y56.419 E5.87295
G1 X30.913 Y55.284 E5.94206
G1 X30.467 Y54.567 E5.98419
G1 X29.467 Y52.746 E6.08783
G1 X29.097 Y51.975 E6.1305
G1 X28.568 Y50.697 E6.1995
G1 X28.336 Y50.06 E6.23333
G1 X27.919 Y48.738 E6.30248
G1 X27.708 Y47.914 E6.34492
G1 X27.303 Y45.878 E6.44849
G1 X27.183 Y45.037 E6.49087
G1 X27.062 Y43.657 E6.55998
G1 X27.032 Y42.976 E6.59399
G1 X27.032 Y41.591 E6.66309
G1 X27.062 Y40.909 E6.69715
G1 X27.183 Y39.53 E6.76621
G1 X27.272 Y38.855 E6.80018
G1 X27.513 Y37.491 E6.86928
G1 X27.659 Y36.832 E6.90296
G1 X28.017 Y35.494 E6.97206
G1 X28.223 Y34.84 E7.00627
G1 X28.697 Y33.539 E7.07535
G1 X28.955 Y32.916 E7.10899
G1 X29.54 Y31.66 E7.17811
G1 X29.858 Y31.05 E7.21243
G1 X30.551 Y29.851 E7.28152
G1 X30.915 Y29.28 E7.31531
G1 X31.709 Y28.146 E7.38437
G1 X32.122 Y27.607 E7.41825
G0 F3600 X32.429 Y27.864
G1 F1800 X33.319 Y26.803 E7.48734
G1 X33.869 Y26.215 E7.52751
G1 X35.368 Y24.779 E7.63107
G1 X36.113 Y24.154 E7.67959
G1 X37.789 Y22.926 E7.78325
G1 X38.601 Y22.409 E7.83127
G1 X40.422 Y21.409 E7.93492
G1 X41.154 Y21.058 E7.97542
G1 X42.432 Y20.529 E8.04443
G1 X43.041 Y20.307 E8.07677
G1 X44.363 Y19.891 E8.14591
G1 X45.137 Y19.693 E8.18577
G1 X47.173 Y19.287 E8.28934
G1 X47.979 Y19.172 E8.32996
G1 X49.359 Y19.052 E8.39907
G1 X50 Y19.024 E8.43108
G1 X51.385 Y19.024 E8.50018
G1 X52.027 Y19.052 E8.53224
G1 X53.406 Y19.172 E8.6013
G1 X54.052 Y19.257 E8.6338
G1 X55.416 Y19.498 E8.70291
G1 X56.041 Y19.636 E8.73484
G1 X57.379 Y19.994 E8.80394
G1 X57.999 Y20.19 E8.83638
G1 X59.3 Y20.664 E8.90546
G1 X59.891 Y20.909 E8.93738
G1 X61.147 Y21.494 E9.00651
G1 X61.726 Y21.795 E9.03906
G1 X62.925 Y22.488 E9.10816
G1 X63.466 Y22.833 E9.14017
G1 X64.6 Y23.627 E9.20923
G1 X65.112 Y24.02 E9.24143
G1 X66.173 Y24.91 E9.31052
G1 X66.761 Y25.46 E9.35069
G1 X68.197 Y26.959 E9.45426
G1 X68.822 Y27.704 E9.50277
G1 X70.05 Y29.38 E9.60643
G1 X70.568 Y30.194 E9.65457
G1 X71.568 Y32.016 E9.75826
G1 X71.918 Y32.744 E9.79856
G1 X72.447 Y34.021 E9.86752
G1 X72.668 Y34.63 E9.89984
G1 X73.084 Y35.951 E9.96893
G1 X73.283 Y36.728 E10.00895
G1 X73.689 Y38.766 E10.11262
G1 X73.804 Y39.57 E10.15314
G1 X73.924 Y40.949 E10.2222
G1 X73.952 Y41.591 E10.25426
G1 X73.952 Y42.976 E10.32336
G1 X73.924 Y43.617 E10.35537
G1 X73.804 Y44.997 E10.42448
G1 X73.719 Y45.644 E10.45704
G1 X73.478 Y47.008 E10.52614
G1 X73.339 Y47.634 E10.55813
G1 X72.981 Y48.971 E10.62718
G1 X72.787 Y49.588 E10.65945
G1 X72.313 Y50.89 E10.72858
G1 X72.066 Y51.485 E10.76072
G1 X71.481 Y52.74 E10.8298
G1 X71.181 Y53.317 E10.86225
G1 X70.488 Y54.516 E10.93134
G1 X70.145 Y55.055 E10.96321
G1 X69.351 Y56.19 E11.03232
G1 X68.956 Y56.704 E11.06466
G1 X68.066 Y57.765 E11.13375
G1 X67.516 Y58.353 E11.17392
G1 X66.017 Y59.789 E11.27748
G1 X65.269 Y60.416 E11.32618
G1 X63.593 Y61.643 E11.4298
G1 X62.925 Y62.079 E11.4696
G1 X61.726 Y62.772 E11.53869
G1 X61.147 Y63.073 E11.57125
G1 X59.891 Y63.658 E11.64038
G1 X59.3 Y63.903 E11.67229
G1 X57.999 Y64.377 E11.74137
G1 X57.224 Y64.612 E11.78178
G1 X55.208 Y65.105 E11.88532
G1 X54.416 Y65.254 E11.92553
G1 X53.041 Y65.435 E11.99472
G1 X52.401 Y65.491 E12.02677
G1 X51.018 Y65.552 E12.09583
G1 X50.366 Y65.552 E12.12836
G1 X48.984 Y65.491 E12.19738
G1 X48.343 Y65.435 E12.22948
G1 X46.97 Y65.254 E12.29857
G1 X46.336 Y65.142 E12.33069
G1 X44.982 Y64.842 E12.39988
G1 X44.357 Y64.674 E12.43217
G1 X43.038 Y64.258 E12.50117
G1 X42.432 Y64.038 E12.53333
G1 X41.15 Y63.507 E12.60256
G1 X40.57 Y63.237 E12.63448
G1 X39.342 Y62.599 E12.70352
G1 X38.777 Y62.273 E12.73606
G1 X37.611 Y61.53 E12.80504
G1 X37.086 Y61.162 E12.83703
G1 X35.985 Y60.318 E12.90624
G1 X35.483 Y59.897 E12.93893
G1 X34.462 Y58.96 E13.00806
G1 X33.902 Y58.387 E13.04804
G1 X32.534 Y56.827 E13.15155
G1 X32.034 Y56.19 E13.19195
G1 X31.24 Y55.055 E13.26106
G1 X30.818 Y54.375 E13.30099
G1 X29.818 Y52.554 E13.40463
G1 X29.467 Y51.822 E13.44513
G1 X28.938 Y50.544 E13.51414
G1 X28.718 Y49.94 E13.54621
G1 X28.301 Y48.618 E13.61537
G1 X28.1 Y47.836 E13.65565
G1 X27.695 Y45.8 E13.75922
G1 X27.581 Y45.002 E13.79943
G1 X27.46 Y43.622 E13.86855
G1 X27.432 Y42.976 E13.90081
G1 X27.432 Y41.591 E13.9699
G1 X27.46 Y40.944 E14.00221
G1 X27.581 Y39.565 E14.07128
G1 X27.666 Y38.924 E14.10354
G1 X27.907 Y37.56 E14.17264
G1 X28.045 Y36.935 E14.20457
G1 X28.403 Y35.597 E14.27367
G1 X28.599 Y34.977 E14.30611
G1 X29.073 Y33.676 E14.37519
G1 X29.318 Y33.085 E14.40711
G1 X29.903 Y31.829 E14.47624
G1 X30.204 Y31.25 E14.5088
G1 X30.897 Y30.051 E14.57789
G1 X31.242 Y29.51 E14.6099
G1 X32.036 Y28.376 E14.67896
G1 X32.429 Y27.864 E14.71116
G0 F3600 X32.735 Y28.121
G1 F1800 X33.625 Y27.06 E14.78025
G1 X34.146 Y26.504 E14.81827
G1 X35.645 Y25.068 E14.92183
G1 X36.35 Y24.476 E14.96776
G1 X38.026 Y23.248 E15.07142
G1 X38.794 Y22.759 E15.11684
G1 X40.615 Y21.759 E15.22049
G1 X41.307 Y21.427 E15.25878
G1 X42.585 Y20.898 E15.32779
G1 X43.161 Y20.689 E15.35836
G1 X44.483 Y20.273 E15.4275
G1 X45.215 Y20.085 E15.46521
G1 X47.251 Y19.679 E15.56878
G1 X48.014 Y19.57 E15.60724
G1 X49.394 Y19.45 E15.67634
G1 X50 Y19.424 E15.7066
G1 X51.385 Y19.424 E15.7757
G1 X51.992 Y19.45 E15.80601
G1 X53.371 Y19.57 E15.87507
G1 X53.982 Y19.651 E15.90582
G1 X55.346 Y19.892 E15.97493
G1 X55.937 Y20.023 E16.00513
G1 X57.275 Y20.381 E16.07423
G1 X57.862 Y20.566 E16.10493
G1 X59.163 Y21.04 E16.17401
G1 X59.722 Y21.272 E16.20421
G1 X60.978 Y21.857 E16.27334
G1 X61.526 Y22.141 E16.30413
G1 X62.725 Y22.834 E16.37322
G1 X63.237 Y23.161 E16.40353
G1 X64.371 Y23.955 E16.47259
G1 X64.855 Y24.326 E16.50302
G1 X65.916 Y25.216 E16.57211
G1 X66.472 Y25.737 E16.61012
G1 X67.908 Y27.236 E16.71369
G1 X68.5 Y27.941 E16.75962
G1 X69.728 Y29.617 E16.86327
G1 X70.217 Y30.386 E16.90874
G1 X71.217 Y32.208 E17.01243
G1 X71.548 Y32.897 E17.05057
G1 X72.077 Y34.174 E17.11953
G1 X72.287 Y34.75 E17.15011
G1 X72.703 Y36.071 E17.21921
G1 X72.891 Y36.806 E17.25706
G1 X73.297 Y38.844 E17.36073
G1 X73.406 Y39.605 E17.39909
G1 X73.526 Y40.984 E17.46814
G1 X73.552 Y41.591 E17.49846
G1 X73.552 Y42.976 E17.56755
G1 X73.526 Y43.582 E17.59781
G1 X73.406 Y44.962 E17.66692
G1 X73.325 Y45.574 E17.69772
G1 X73.084 Y46.938 E17.76683
G1 X72.953 Y47.531 E17.79712
G1 X72.595 Y48.868 E17.86618
G1 X72.411 Y49.452 E17.89673
G1 X71.937 Y50.754 E17.96585
G1 X71.704 Y51.316 E17.99621
G1 X71.119 Y52.571 E18.06529
G1 X70.835 Y53.117 E18.09599
G1 X70.142 Y54.316 E18.16508
G1 X69.817 Y54.826 E18.19525
G1 X69.023 Y55.961 E18.26436
G1 X68.65 Y56.447 E18.29492
G1 X67.76 Y57.508 E18.36401
G1 X67.239 Y58.064 E18.40203
G1 X65.74 Y59.5 E18.50559
G1 X65.033 Y60.093 E18.55163
G1 X63.357 Y61.32 E18.65526
G1 X62.725 Y61.733 E18.69292
G1 X61.526 Y62.426 E18.76202
G1 X60.978 Y62.71 E18.79281
G1 X59.722 Y63.295 E18.86193
G1 X59.163 Y63.527 E18.89213
G1 X57.862 Y64.001 E18.96121
G1 X57.129 Y64.224 E18.99943
G1 X55.113 Y64.717 E19.10298
G1 X54.364 Y64.857 E19.14099
G1 X52.989 Y65.038 E19.21018
G1 X52.383 Y65.091 E19.24053
G1 X51 Y65.152 E19.3096
G1 X50.383 Y65.152 E19.34038
G1 X49.001 Y65.091 E19.40939
G1 X48.395 Y65.038 E19.43974
G1 X47.022 Y64.857 E19.50884
G1 X46.423 Y64.751 E19.53918
G1 X45.069 Y64.451 E19.60837
G1 X44.478 Y64.293 E19.63889
G1 X43.159 Y63.877 E19.70789
G1 X42.585 Y63.668 E19.73837
G1 X41.303 Y63.137 E19.8076
G1 X40.755 Y62.882 E19.83775
G1 X39.527 Y62.244 E19.90679
G1 X38.992 Y61.935 E19.93762
G1 X37.826 Y61.192 E20.0066
G1 X37.329 Y60.844 E20.03687
G1 X36.228 Y60 E20.10608
G1 X35.754 Y59.602 E20.13696
G1 X34.733 Y58.665 E20.20609
G1 X34.203 Y58.123 E20.24391
G1 X32.835 Y56.563 E20.34743
G1 X32.362 Y55.961 E20.38562
G1 X31.568 Y54.826 E20.45473
G1 X31.168 Y54.182 E20.49255
G1 X30.168 Y52.361 E20.5962
G1 X29.836 Y51.669 E20.63449
G1 X29.307 Y50.391 E20.7035
G1 X29.099 Y49.82 E20.73382
G1 X28.682 Y48.498 E20.80297
G1 X28.493 Y47.758 E20.84108
G1 X28.088 Y45.722 E20.94464
G1 X27.98 Y44.967 E20.98269
G1 X27.859 Y43.587 E21.05181
G1 X27.832 Y42.976 E21.08232
G1 X27.832 Y41.591 E21.15142
G1 X27.859 Y40.979 E21.18198
G1 X27.98 Y39.6 E21.25104
G1 X28.06 Y38.994 E21.28154
G1 X28.301 Y37.63 E21.35064
G1 X28.432 Y37.039 E21.38084
G1 X28.79 Y35.701 E21.44995
G1 X28.975 Y35.114 E21.48065
G1 X29.449 Y33.813 E21.54973
G1 X29.681 Y33.254 E21.57993
G1 X30.266 Y31.998 E21.64905
G1 X30.55 Y31.45 E21.67985
G1 X31.243 Y30.251 E21.74894
G1 X31.57 Y29.739 E21.77925
G1 X32.364 Y28.605 E21.84831
G1 X32.735 Y28.121 E21.87874
G0 F3600 X33.041 Y28.378
G1 F1800 X33.931 Y27.317 E21.94783
G1 X34.422 Y26.793 E21.98365
G1 X35.921 Y25.357 E22.08722
G1 X36.586 Y24.799 E22.13053
G1 X38.262 Y23.571 E22.23418
G1 X38.986 Y23.11 E22.27701
G1 X40.807 Y22.11 E22.38065
G1 X41.46 Y21.797 E22.41678
G1 X42.738 Y21.268 E22.48579
G1 X43.281 Y21.07 E22.51462
G1 X44.603 Y20.654 E22.58376
G1 X45.293 Y20.477 E22.6193
G1 X47.329 Y20.071 E22.72288
G1 X48.048 Y19.969 E22.75911
G1 X49.428 Y19.849 E22.82822
G1 X50 Y19.824 E22.85678
G1 X51.385 Y19.824 E22.92588
G1 X51.957 Y19.849 E22.95444
G1 X53.336 Y19.969 E23.0235
G1 X53.912 Y20.045 E23.05249
G1 X55.276 Y20.286 E23.12159
G1 X55.834 Y20.409 E23.1501
G1 X57.172 Y20.767 E23.2192
G1 X57.725 Y20.942 E23.24814
G1 X59.026 Y21.416 E23.31722
G1 X59.554 Y21.634 E23.34572
G1 X60.81 Y22.219 E23.41484
G1 X61.326 Y22.488 E23.44388
G1 X62.525 Y23.181 E23.51297
G1 X63.007 Y23.489 E23.54151
G1 X64.141 Y24.283 E23.61057
G1 X64.598 Y24.632 E23.63926
G1 X65.659 Y25.522 E23.70835
G1 X66.183 Y26.013 E23.74417
G1 X67.619 Y27.512 E23.84774
G1 X68.177 Y28.177 E23.89105
G1 X69.405 Y29.853 E23.99471
G1 X69.867 Y30.578 E24.0376
G1 X70.867 Y32.4 E24.14129
G1 X71.179 Y33.05 E24.17726
G1 X71.708 Y34.327 E24.24622
G1 X71.905 Y34.871 E24.27508
G1 X72.321 Y36.192 E24.34418
G1 X72.499 Y36.885 E24.37987
G1 X72.905 Y38.923 E24.48355
G1 X73.007 Y39.64 E24.51968
G1 X73.127 Y41.019 E24.58874
G1 X73.152 Y41.591 E24.6173
G1 X73.152 Y42.976 E24.6864
G1 X73.127 Y43.548 E24.71497
G1 X73.007 Y44.928 E24.78407
G1 X72.931 Y45.504 E24.81306
G1 X72.69 Y46.868 E24.88216
G1 X72.566 Y47.427 E24.91073
G1 X72.208 Y48.764 E24.97978
G1 X72.035 Y49.315 E25.0086
G1 X71.561 Y50.617 E25.07772
G1 X71.341 Y51.147 E25.10635
G1 X70.756 Y52.402 E25.17543
G1 X70.488 Y52.917 E25.2044
G1 X69.795 Y54.116 E25.27349
G1 X69.489 Y54.596 E25.30189
G1 X68.695 Y55.731 E25.37099
G1 X68.344 Y56.19 E25.39982
G1 X67.454 Y57.251 E25.46891
G1 X66.963 Y57.775 E25.50474
G1 X65.464 Y59.211 E25.6083
G1 X64.797 Y59.77 E25.65172
G1 X63.121 Y60.997 E25.75535
G1 X62.525 Y61.386 E25.79086
G1 X61.326 Y62.079 E25.85995
G1 X60.81 Y62.348 E25.88898
G1 X59.554 Y62.933 E25.95811
G1 X59.026 Y63.151 E25.9866
G1 X57.725 Y63.625 E26.05569
G1 X57.034 Y63.835 E26.09172
G1 X55.018 Y64.328 E26.19526
G1 X54.311 Y64.461 E26.23115
G1 X52.936 Y64.642 E26.30034
G1 X52.366 Y64.692 E26.32889
G1 X50.983 Y64.753 E26.39795
G1 X50.401 Y64.753 E26.42699
G1 X49.019 Y64.692 E26.496
G1 X48.447 Y64.641 E26.52465
G1 X47.074 Y64.46 E26.59375
G1 X46.509 Y64.361 E26.62236
G1 X45.155 Y64.061 E26.69155
G1 X44.598 Y63.911 E26.72033
G1 X43.279 Y63.495 E26.78933
G1 X42.738 Y63.299 E26.81804
G1 X41.456 Y62.768 E26.88727
G1 X40.939 Y62.527 E26.91573
G1 X39.711 Y61.889 E26.98477
G1 X39.207 Y61.598 E27.0138
G1 X38.041 Y60.855 E27.08278
G1 X37.573 Y60.527 E27.11129
G1 X36.472 Y59.683 E27.1805
G1 X36.024 Y59.308 E27.20965
G1 X35.003 Y58.371 E27.27879
G1 X34.504 Y57.86 E27.31442
G1 X33.136 Y56.3 E27.41794
G1 X32.69 Y55.731 E27.45401
G1 X31.896 Y54.596 E27.52311
G1 X31.519 Y53.99 E27.55872
G1 X30.519 Y52.169 E27.66237
G1 X30.206 Y51.516 E27.69849
G1 X29.677 Y50.238 E27.7675
G1 X29.481 Y49.699 E27.79611
G1 X29.064 Y48.377 E27.86527
G1 X28.885 Y47.68 E27.90117
G1 X28.48 Y45.644 E28.00474
G1 X28.378 Y44.932 E28.04062
G1 X28.257 Y43.552 E28.10974
G1 X28.232 Y42.976 E28.1385
G1 X28.232 Y41.591 E28.2076
G1 X28.257 Y41.014 E28.23641
G1 X28.378 Y39.635 E28.30547
G1 X28.454 Y39.064 E28.33421
G1 X28.695 Y37.7 E28.40332
G1 X28.818 Y37.142 E28.43182
G1 X29.176 Y35.804 E28.50093
G1 X29.351 Y35.251 E28.52986
G1 X29.825 Y33.95 E28.59894
G1 X30.043 Y33.422 E28.62744
G1 X30.628 Y32.166 E28.69657
G1 X30.897 Y31.65 E28.7256
G1 X31.59 Y30.451 E28.79469
G1 X31.898 Y29.969 E28.82323
G1 X32.692 Y28.835 E28.89229
G1 X33.041 Y28.378 E28.92098
G0 F3600 X33.348 Y28.635
G1 F1800 X34.238 Y27.574 E28.99007
G1 X34.699 Y27.082 E29.02371
G1 X36.198 Y25.646 E29.12727
G1 X36.823 Y25.122 E29.16796
G1 X38.499 Y23.894 E29.27162
G1 X39.179 Y23.461 E29.31184
G1 X41 Y22.461 E29.41549
G1 X41.613 Y22.166 E29.44943
G1 X42.891 Y21.637 E29.51843
G1 X43.401 Y21.452 E29.5455
G1 X44.723 Y21.036 E29.61464
G1 X45.372 Y20.87 E29.64807
G1 X47.408 Y20.464 E29.75164
G1 X48.083 Y20.367 E29.78566
G1 X49.463 Y20.247 E29.85477
G1 X50 Y20.224 E29.88159
G1 X51.385 Y20.224 E29.95069
G1 X51.922 Y20.247 E29.9775
